%
(Header)
(Generated by gcodetools from Inkscape.)
(Using default header. To add your own header create file "header" in the output dir.)
(Header end.)
G21 (All units in mm)

(Start cutting path id: path844)
(Change tool to Cone cutter)

G00 Z5.000000
G00 X27.832031 Y91.662109

G01 Z-1.000000 F100.0(Penetrate)
G01 X14.937500 Y88.207031 Z-1.000000 F100.000000
G01 X36.347656 Y51.121094 Z-1.000000
G01 X18.796875 Y46.417969 Z-1.000000
G01 X25.353516 Y35.062500 Z-1.000000
G01 X9.103516 Y30.707031 Z-1.000000
G01 X16.533203 Y25.265625 Z-1.000000
G01 X84.044922 Y25.265625 Z-1.000000
G01 X61.164062 Y38.474609 Z-1.000000
G01 X73.728516 Y60.236328 Z-1.000000
G01 X73.728516 Y75.271484 Z-1.000000
G01 X49.099609 Y81.871094 Z-1.000000
G01 X45.732422 Y69.302734 Z-1.000000
G01 X32.900391 Y72.742188 Z-1.000000
G01 X27.832031 Y91.662109 Z-1.000000
G00 Z5.000000

(End cutting path id: path844)


(Start cutting path id: path844)
(Change tool to Cone cutter)

G00 Z5.000000
G00 X27.832031 Y91.662109

G01 Z-1.000000 F100.0(Penetrate)
G01 X14.937500 Y88.207031 Z-1.000000 F100.000000
G01 X36.347656 Y51.121094 Z-1.000000
G01 X18.796875 Y46.417969 Z-1.000000
G01 X25.353516 Y35.062500 Z-1.000000
G01 X9.103516 Y30.707031 Z-1.000000
G01 X16.533203 Y25.265625 Z-1.000000
G01 X84.044922 Y25.265625 Z-1.000000
G01 X61.164062 Y38.474609 Z-1.000000
G01 X73.728516 Y60.236328 Z-1.000000
G01 X73.728516 Y75.271484 Z-1.000000
G01 X49.099609 Y81.871094 Z-1.000000
G01 X45.732422 Y69.302734 Z-1.000000
G01 X32.900391 Y72.742188 Z-1.000000
G01 X27.832031 Y91.662109 Z-1.000000
G00 Z5.000000

(End cutting path id: path844)


(Footer)
G00 X0.0000 Y0.0000
(Using default footer. To add your own footer create file "footer" in the output dir.)
(end)
%
