%
(Header)
(Generated by gcodetools from Inkscape.)
(Using default header. To add your own header create file "header" in the output dir.)
M3
(Header end.)
G21 (All units in mm)

(Start cutting path id: path2980)
(Change tool to Cone cutter)

G00 Z5.000000
G00 X245.533430 Y656.218940

G01 Z-1.000000 F100.0(Penetrate)
G02 X245.407360 Y655.913737 Z-1.000000 I-0.432468 J-0.000000 F400.000000
G02 X245.107650 Y655.789250 Z-1.000000 I-0.299710 J0.298541
G02 X244.803813 Y655.915103 Z-1.000000 I-0.000000 J0.429690
G02 X244.677960 Y656.218940 Z-1.000000 I0.303837 J0.303837
G02 X244.802447 Y656.518650 Z-1.000000 I0.423028 J0.000000
G02 X245.107650 Y656.644720 Z-1.000000 I0.305203 J-0.306398
G02 X245.408722 Y656.520012 Z-1.000000 I-0.000000 J-0.425780
G02 X245.533430 Y656.218940 Z-1.000000 I-0.301072 J-0.301072
G01 X245.533430 Y656.218940 Z-1.000000
G00 Z5.000000

(End cutting path id: path2980)


(Start cutting path id: path2980)
(Change tool to Cone cutter)

G00 Z5.000000
G00 X245.533430 Y656.218940

G01 Z-1.000000 F100.0(Penetrate)
G02 X245.407360 Y655.913737 Z-1.000000 I-0.432468 J-0.000000 F400.000000
G02 X245.107650 Y655.789250 Z-1.000000 I-0.299710 J0.298541
G02 X244.803813 Y655.915103 Z-1.000000 I-0.000000 J0.429690
G02 X244.677960 Y656.218940 Z-1.000000 I0.303837 J0.303837
G02 X244.802447 Y656.518650 Z-1.000000 I0.423028 J0.000000
G02 X245.107650 Y656.644720 Z-1.000000 I0.305203 J-0.306398
G02 X245.408722 Y656.520012 Z-1.000000 I-0.000000 J-0.425780
G02 X245.533430 Y656.218940 Z-1.000000 I-0.301072 J-0.301072
G01 X245.533430 Y656.218940 Z-1.000000
G00 Z5.000000

(End cutting path id: path2980)


(Start cutting path id: path2980)
(Change tool to Cone cutter)

G00 Z5.000000
G00 X245.533430 Y656.218940

G00 Z5.000000

(End cutting path id: path2980)


(Start cutting path id: path2980)
(Change tool to Cone cutter)

G00 Z5.000000
G00 X245.533430 Y656.218940

G00 Z5.000000

(End cutting path id: path2980)


(Start cutting path id: path2920)
(Change tool to Cone cutter)

G00 Z5.000000
G00 X245.107650 Y656.218940

G01 Z-1.000000 F100.0(Penetrate)
G01 X245.107650 Y658.484560 Z-1.000000 F400.000000
G02 X246.709685 Y657.820975 Z-1.000000 I-0.000000 J-2.265620
G02 X247.373270 Y656.218940 Z-1.000000 I-1.602035 J-1.602035
G02 X246.708320 Y654.612774 Z-1.000000 I-2.272297 J0.000000
G02 X245.107650 Y653.949410 Z-1.000000 I-1.600670 J1.599494
G01 X245.107650 Y656.218940 Z-1.000000
G00 Z5.000000

(End cutting path id: path2920)


(Start cutting path id: path2920)
(Change tool to Cone cutter)

G00 Z5.000000
G00 X245.107650 Y656.218940

G01 Z-1.000000 F100.0(Penetrate)
G01 X245.107650 Y658.484560 Z-1.000000 F400.000000
G02 X246.709685 Y657.820975 Z-1.000000 I-0.000000 J-2.265620
G02 X247.373270 Y656.218940 Z-1.000000 I-1.602035 J-1.602035
G02 X246.708320 Y654.612774 Z-1.000000 I-2.272297 J0.000000
G02 X245.107650 Y653.949410 Z-1.000000 I-1.600670 J1.599494
G01 X245.107650 Y656.218940 Z-1.000000
G00 Z5.000000

(End cutting path id: path2920)


(Start cutting path id: path2920)
(Change tool to Cone cutter)

G00 Z5.000000
G00 X245.107650 Y656.218940

G00 Z5.000000

(End cutting path id: path2920)


(Start cutting path id: path2920)
(Change tool to Cone cutter)

G00 Z5.000000
G00 X245.107650 Y656.218940

G00 Z5.000000

(End cutting path id: path2920)


(Start cutting path id: path2918)
(Change tool to Cone cutter)

G00 Z5.000000
G00 X245.107650 Y656.218940

G01 Z-1.000000 F100.0(Penetrate)
G01 X245.107650 Y653.949410 Z-1.000000 F400.000000
G02 X243.502850 Y654.614140 Z-1.000000 I0.000000 J2.269530
G02 X242.838120 Y656.218940 Z-1.000000 I1.604800 J1.604800
G02 X243.501484 Y657.819610 Z-1.000000 I2.262858 J-0.000000
G02 X245.107650 Y658.484560 Z-1.000000 I1.606166 J-1.607347
G01 X245.107650 Y656.218940 Z-1.000000
G00 Z5.000000

(End cutting path id: path2918)


(Start cutting path id: path2918)
(Change tool to Cone cutter)

G00 Z5.000000
G00 X245.107650 Y656.218940

G01 Z-1.000000 F100.0(Penetrate)
G01 X245.107650 Y653.949410 Z-1.000000 F400.000000
G02 X243.502850 Y654.614140 Z-1.000000 I0.000000 J2.269530
G02 X242.838120 Y656.218940 Z-1.000000 I1.604800 J1.604800
G02 X243.501484 Y657.819610 Z-1.000000 I2.262858 J-0.000000
G02 X245.107650 Y658.484560 Z-1.000000 I1.606166 J-1.607347
G01 X245.107650 Y656.218940 Z-1.000000
G00 Z5.000000

(End cutting path id: path2918)


(Start cutting path id: path2918)
(Change tool to Cone cutter)

G00 Z5.000000
G00 X245.107650 Y656.218940

G00 Z5.000000

(End cutting path id: path2918)


(Start cutting path id: path2918)
(Change tool to Cone cutter)

G00 Z5.000000
G00 X245.107650 Y656.218940

G00 Z5.000000

(End cutting path id: path2918)


(Start cutting path id: path2970)
(Change tool to Cone cutter)

G00 Z5.000000
G00 X234.732650 Y667.019720

G01 Z-1.000000 F100.0(Penetrate)
G02 X234.606580 Y666.714517 Z-1.000000 I-0.432468 J-0.000000 F400.000000
G02 X234.306870 Y666.590030 Z-1.000000 I-0.299710 J0.298541
G02 X234.003033 Y666.715883 Z-1.000000 I-0.000000 J0.429690
G02 X233.877180 Y667.019720 Z-1.000000 I0.303837 J0.303837
G02 X234.001667 Y667.319430 Z-1.000000 I0.423028 J0.000000
G02 X234.306870 Y667.445500 Z-1.000000 I0.305203 J-0.306398
G02 X234.607942 Y667.320792 Z-1.000000 I-0.000000 J-0.425780
G02 X234.732650 Y667.019720 Z-1.000000 I-0.301072 J-0.301072
G01 X234.732650 Y667.019720 Z-1.000000
G00 Z5.000000

(End cutting path id: path2970)


(Start cutting path id: path2970)
(Change tool to Cone cutter)

G00 Z5.000000
G00 X234.732650 Y667.019720

G01 Z-1.000000 F100.0(Penetrate)
G02 X234.606580 Y666.714517 Z-1.000000 I-0.432468 J-0.000000 F400.000000
G02 X234.306870 Y666.590030 Z-1.000000 I-0.299710 J0.298541
G02 X234.003033 Y666.715883 Z-1.000000 I-0.000000 J0.429690
G02 X233.877180 Y667.019720 Z-1.000000 I0.303837 J0.303837
G02 X234.001667 Y667.319430 Z-1.000000 I0.423028 J0.000000
G02 X234.306870 Y667.445500 Z-1.000000 I0.305203 J-0.306398
G02 X234.607942 Y667.320792 Z-1.000000 I-0.000000 J-0.425780
G02 X234.732650 Y667.019720 Z-1.000000 I-0.301072 J-0.301072
G01 X234.732650 Y667.019720 Z-1.000000
G00 Z5.000000

(End cutting path id: path2970)


(Start cutting path id: path2970)
(Change tool to Cone cutter)

G00 Z5.000000
G00 X234.732650 Y667.019720

G00 Z5.000000

(End cutting path id: path2970)


(Start cutting path id: path2970)
(Change tool to Cone cutter)

G00 Z5.000000
G00 X234.732650 Y667.019720

G00 Z5.000000

(End cutting path id: path2970)


(Start cutting path id: path2900)
(Change tool to Cone cutter)

G00 Z5.000000
G00 X234.306870 Y667.019720

G01 Z-1.000000 F100.0(Penetrate)
G01 X234.306870 Y669.570500 Z-1.000000 F400.000000
G02 X236.112309 Y668.821627 Z-1.000000 I0.000000 J-2.550780
G02 X236.857650 Y667.019720 Z-1.000000 I-1.805439 J-1.801907
G02 X236.110944 Y665.213681 Z-1.000000 I-2.557464 J0.000000
G02 X234.306870 Y664.465030 Z-1.000000 I-1.804074 J1.799372
G01 X234.306870 Y667.019720 Z-1.000000
G00 Z5.000000

(End cutting path id: path2900)


(Start cutting path id: path2900)
(Change tool to Cone cutter)

G00 Z5.000000
G00 X234.306870 Y667.019720

G01 Z-1.000000 F100.0(Penetrate)
G01 X234.306870 Y669.570500 Z-1.000000 F400.000000
G02 X236.112309 Y668.821627 Z-1.000000 I0.000000 J-2.550780
G02 X236.857650 Y667.019720 Z-1.000000 I-1.805439 J-1.801907
G02 X236.110944 Y665.213681 Z-1.000000 I-2.557464 J0.000000
G02 X234.306870 Y664.465030 Z-1.000000 I-1.804074 J1.799372
G01 X234.306870 Y667.019720 Z-1.000000
G00 Z5.000000

(End cutting path id: path2900)


(Start cutting path id: path2900)
(Change tool to Cone cutter)

G00 Z5.000000
G00 X234.306870 Y667.019720

G00 Z5.000000

(End cutting path id: path2900)


(Start cutting path id: path2900)
(Change tool to Cone cutter)

G00 Z5.000000
G00 X234.306870 Y667.019720

G00 Z5.000000

(End cutting path id: path2900)


(Start cutting path id: path2898)
(Change tool to Cone cutter)

G00 Z5.000000
G00 X234.306870 Y667.019720

G01 Z-1.000000 F100.0(Penetrate)
G01 X234.306870 Y664.465030 Z-1.000000 F400.000000
G02 X232.502791 Y665.213686 Z-1.000000 I0.000000 J2.548024
G02 X231.756090 Y667.019720 Z-1.000000 I1.810763 J1.806034
G02 X232.501426 Y668.821622 Z-1.000000 I2.550780 J0.000000
G02 X234.306870 Y669.570500 Z-1.000000 I1.805444 J-1.801902
G01 X234.306870 Y667.019720 Z-1.000000
G00 Z5.000000

(End cutting path id: path2898)


(Start cutting path id: path2898)
(Change tool to Cone cutter)

G00 Z5.000000
G00 X234.306870 Y667.019720

G01 Z-1.000000 F100.0(Penetrate)
G01 X234.306870 Y664.465030 Z-1.000000 F400.000000
G02 X232.502791 Y665.213686 Z-1.000000 I0.000000 J2.548024
G02 X231.756090 Y667.019720 Z-1.000000 I1.810763 J1.806034
G02 X232.501426 Y668.821622 Z-1.000000 I2.550780 J0.000000
G02 X234.306870 Y669.570500 Z-1.000000 I1.805444 J-1.801902
G01 X234.306870 Y667.019720 Z-1.000000
G00 Z5.000000

(End cutting path id: path2898)


(Start cutting path id: path2898)
(Change tool to Cone cutter)

G00 Z5.000000
G00 X234.306870 Y667.019720

G00 Z5.000000

(End cutting path id: path2898)


(Start cutting path id: path2898)
(Change tool to Cone cutter)

G00 Z5.000000
G00 X234.306870 Y667.019720

G00 Z5.000000

(End cutting path id: path2898)


(Start cutting path id: path2806)
(Change tool to Cone cutter)

G00 Z5.000000
G00 X230.705305 Y670.617370

G01 Z-1.000000 F100.0(Penetrate)
G01 X227.107645 Y674.218945 Z-1.000000 F400.000000
G00 Z5.000000

(End cutting path id: path2806)


(Start cutting path id: path2806)
(Change tool to Cone cutter)

G00 Z5.000000
G00 X230.705305 Y670.617370

G01 Z-1.000000 F100.0(Penetrate)
G01 X227.107645 Y674.218945 Z-1.000000 F400.000000
G00 Z5.000000

(End cutting path id: path2806)


(Start cutting path id: path2808)
(Change tool to Cone cutter)

G00 Z5.000000
G00 X227.107645 Y674.218945

G01 Z-1.000000 F100.0(Penetrate)
G01 X227.107645 Y675.914245 Z-1.000000 F400.000000
G00 Z5.000000

(End cutting path id: path2808)


(Start cutting path id: path2808)
(Change tool to Cone cutter)

G00 Z5.000000
G00 X227.107645 Y674.218945

G01 Z-1.000000 F100.0(Penetrate)
G01 X227.107645 Y675.914245 Z-1.000000 F400.000000
G00 Z5.000000

(End cutting path id: path2808)


(Start cutting path id: path2800)
(Change tool to Cone cutter)

G00 Z5.000000
G00 X227.107645 Y675.914245

G01 Z-1.000000 F100.0(Penetrate)
G01 X227.107645 Y713.816590 Z-1.000000 F400.000000
G00 Z5.000000

(End cutting path id: path2800)


(Start cutting path id: path2800)
(Change tool to Cone cutter)

G00 Z5.000000
G00 X227.107645 Y675.914245

G01 Z-1.000000 F100.0(Penetrate)
G01 X227.107645 Y713.816590 Z-1.000000 F400.000000
G00 Z5.000000

(End cutting path id: path2800)


(Start cutting path id: path2880)
(Change tool to Cone cutter)

G00 Z5.000000
G00 X227.107650 Y713.816590

G01 Z-1.000000 F100.0(Penetrate)
G01 X229.513900 Y713.816590 Z-1.000000 F400.000000
G02 X228.809126 Y712.115114 Z-1.000000 I-2.406250 J0.000000
G02 X227.107650 Y711.410340 Z-1.000000 I-1.701476 J1.701476
G02 X225.402044 Y712.116479 Z-1.000000 I0.000000 J2.412927
G02 X224.697490 Y713.816590 Z-1.000000 I1.698933 J1.700111
G01 X227.107650 Y713.816590 Z-1.000000
G00 Z5.000000

(End cutting path id: path2880)


(Start cutting path id: path2880)
(Change tool to Cone cutter)

G00 Z5.000000
G00 X227.107650 Y713.816590

G01 Z-1.000000 F100.0(Penetrate)
G01 X229.513900 Y713.816590 Z-1.000000 F400.000000
G02 X228.809126 Y712.115114 Z-1.000000 I-2.406250 J0.000000
G02 X227.107650 Y711.410340 Z-1.000000 I-1.701476 J1.701476
G02 X225.402044 Y712.116479 Z-1.000000 I0.000000 J2.412927
G02 X224.697490 Y713.816590 Z-1.000000 I1.698933 J1.700111
G01 X227.107650 Y713.816590 Z-1.000000
G00 Z5.000000

(End cutting path id: path2880)


(Start cutting path id: path2880)
(Change tool to Cone cutter)

G00 Z5.000000
G00 X227.107650 Y713.816590

G00 Z5.000000

(End cutting path id: path2880)


(Start cutting path id: path2880)
(Change tool to Cone cutter)

G00 Z5.000000
G00 X227.107650 Y713.816590

G00 Z5.000000

(End cutting path id: path2880)


(Start cutting path id: path2878)
(Change tool to Cone cutter)

G00 Z5.000000
G00 X227.107650 Y713.816590

G01 Z-1.000000 F100.0(Penetrate)
G01 X224.697490 Y713.816590 Z-1.000000 F400.000000
G02 X225.403414 Y715.520835 Z-1.000000 I2.410160 J-0.000000
G02 X227.107650 Y716.226750 Z-1.000000 I1.704236 J-1.704245
G02 X228.807757 Y715.522200 Z-1.000000 I0.000000 J-2.403488
G02 X229.513900 Y713.816590 Z-1.000000 I-1.706784 J-1.705610
G01 X227.107650 Y713.816590 Z-1.000000
G00 Z5.000000

(End cutting path id: path2878)


(Start cutting path id: path2878)
(Change tool to Cone cutter)

G00 Z5.000000
G00 X227.107650 Y713.816590

G01 Z-1.000000 F100.0(Penetrate)
G01 X224.697490 Y713.816590 Z-1.000000 F400.000000
G02 X225.403414 Y715.520835 Z-1.000000 I2.410160 J-0.000000
G02 X227.107650 Y716.226750 Z-1.000000 I1.704236 J-1.704245
G02 X228.807757 Y715.522200 Z-1.000000 I0.000000 J-2.403488
G02 X229.513900 Y713.816590 Z-1.000000 I-1.706784 J-1.705610
G01 X227.107650 Y713.816590 Z-1.000000
G00 Z5.000000

(End cutting path id: path2878)


(Start cutting path id: path2878)
(Change tool to Cone cutter)

G00 Z5.000000
G00 X227.107650 Y713.816590

G00 Z5.000000

(End cutting path id: path2878)


(Start cutting path id: path2878)
(Change tool to Cone cutter)

G00 Z5.000000
G00 X227.107650 Y713.816590

G00 Z5.000000

(End cutting path id: path2878)


(Start cutting path id: path2952)
(Change tool to Cone cutter)

G00 Z5.000000
G00 X227.533430 Y713.816590

G01 Z-1.000000 F100.0(Penetrate)
G02 X227.408722 Y713.515518 Z-1.000000 I-0.425780 J0.000000 F400.000000
G02 X227.107650 Y713.390810 Z-1.000000 I-0.301072 J0.301072
G02 X226.802447 Y713.516880 Z-1.000000 I0.000000 J0.432468
G02 X226.677960 Y713.816590 Z-1.000000 I0.298541 J0.299710
G02 X226.803818 Y714.120431 Z-1.000000 I0.429690 J-0.000000
G02 X227.107650 Y714.246280 Z-1.000000 I0.303832 J-0.303841
G02 X227.407355 Y714.121798 Z-1.000000 I0.000000 J-0.423028
G02 X227.533430 Y713.816590 Z-1.000000 I-0.306393 J-0.305208
G01 X227.533430 Y713.816590 Z-1.000000
G00 Z5.000000

(End cutting path id: path2952)


(Start cutting path id: path2952)
(Change tool to Cone cutter)

G00 Z5.000000
G00 X227.533430 Y713.816590

G01 Z-1.000000 F100.0(Penetrate)
G02 X227.408722 Y713.515518 Z-1.000000 I-0.425780 J0.000000 F400.000000
G02 X227.107650 Y713.390810 Z-1.000000 I-0.301072 J0.301072
G02 X226.802447 Y713.516880 Z-1.000000 I0.000000 J0.432468
G02 X226.677960 Y713.816590 Z-1.000000 I0.298541 J0.299710
G02 X226.803818 Y714.120431 Z-1.000000 I0.429690 J-0.000000
G02 X227.107650 Y714.246280 Z-1.000000 I0.303832 J-0.303841
G02 X227.407355 Y714.121798 Z-1.000000 I0.000000 J-0.423028
G02 X227.533430 Y713.816590 Z-1.000000 I-0.306393 J-0.305208
G01 X227.533430 Y713.816590 Z-1.000000
G00 Z5.000000

(End cutting path id: path2952)


(Start cutting path id: path2952)
(Change tool to Cone cutter)

G00 Z5.000000
G00 X227.533430 Y713.816590

G00 Z5.000000

(End cutting path id: path2952)


(Start cutting path id: path2952)
(Change tool to Cone cutter)

G00 Z5.000000
G00 X227.533430 Y713.816590

G00 Z5.000000

(End cutting path id: path2952)


(Start cutting path id: path2792)
(Change tool to Cone cutter)

G00 Z5.000000
G00 X234.306865 Y713.816590

G01 Z-1.000000 F100.0(Penetrate)
G01 X234.306865 Y703.019725 Z-1.000000 F400.000000
G00 Z5.000000

(End cutting path id: path2792)


(Start cutting path id: path2792)
(Change tool to Cone cutter)

G00 Z5.000000
G00 X234.306865 Y713.816590

G01 Z-1.000000 F100.0(Penetrate)
G01 X234.306865 Y703.019725 Z-1.000000 F400.000000
G00 Z5.000000

(End cutting path id: path2792)


(Start cutting path id: path2968)
(Change tool to Cone cutter)

G00 Z5.000000
G00 X234.732650 Y703.019720

G01 Z-1.000000 F100.0(Penetrate)
G02 X234.606580 Y702.714517 Z-1.000000 I-0.432468 J-0.000000 F400.000000
G02 X234.306870 Y702.590030 Z-1.000000 I-0.299710 J0.298541
G02 X234.003033 Y702.715883 Z-1.000000 I-0.000000 J0.429690
G02 X233.877180 Y703.019720 Z-1.000000 I0.303837 J0.303837
G02 X234.001667 Y703.319430 Z-1.000000 I0.423028 J0.000000
G02 X234.306870 Y703.445500 Z-1.000000 I0.305203 J-0.306398
G02 X234.607942 Y703.320792 Z-1.000000 I-0.000000 J-0.425780
G02 X234.732650 Y703.019720 Z-1.000000 I-0.301072 J-0.301072
G01 X234.732650 Y703.019720 Z-1.000000
G00 Z5.000000

(End cutting path id: path2968)


(Start cutting path id: path2968)
(Change tool to Cone cutter)

G00 Z5.000000
G00 X234.732650 Y703.019720

G01 Z-1.000000 F100.0(Penetrate)
G02 X234.606580 Y702.714517 Z-1.000000 I-0.432468 J-0.000000 F400.000000
G02 X234.306870 Y702.590030 Z-1.000000 I-0.299710 J0.298541
G02 X234.003033 Y702.715883 Z-1.000000 I-0.000000 J0.429690
G02 X233.877180 Y703.019720 Z-1.000000 I0.303837 J0.303837
G02 X234.001667 Y703.319430 Z-1.000000 I0.423028 J0.000000
G02 X234.306870 Y703.445500 Z-1.000000 I0.305203 J-0.306398
G02 X234.607942 Y703.320792 Z-1.000000 I-0.000000 J-0.425780
G02 X234.732650 Y703.019720 Z-1.000000 I-0.301072 J-0.301072
G01 X234.732650 Y703.019720 Z-1.000000
G00 Z5.000000

(End cutting path id: path2968)


(Start cutting path id: path2968)
(Change tool to Cone cutter)

G00 Z5.000000
G00 X234.732650 Y703.019720

G00 Z5.000000

(End cutting path id: path2968)


(Start cutting path id: path2968)
(Change tool to Cone cutter)

G00 Z5.000000
G00 X234.732650 Y703.019720

G00 Z5.000000

(End cutting path id: path2968)


(Start cutting path id: path2896)
(Change tool to Cone cutter)

G00 Z5.000000
G00 X231.756090 Y705.566590

G01 Z-1.000000 F100.0(Penetrate)
G01 X231.756090 Y700.468940 Z-1.000000 F400.000000
G01 X236.857650 Y700.468940 Z-1.000000
G01 X236.857650 Y705.566590 Z-1.000000
G01 X231.756090 Y705.566590 Z-1.000000
G00 Z5.000000

(End cutting path id: path2896)


(Start cutting path id: path2896)
(Change tool to Cone cutter)

G00 Z5.000000
G00 X231.756090 Y705.566590

G01 Z-1.000000 F100.0(Penetrate)
G01 X231.756090 Y700.468940 Z-1.000000 F400.000000
G01 X236.857650 Y700.468940 Z-1.000000
G01 X236.857650 Y705.566590 Z-1.000000
G01 X231.756090 Y705.566590 Z-1.000000
G00 Z5.000000

(End cutting path id: path2896)


(Start cutting path id: path2896)
(Change tool to Cone cutter)

G00 Z5.000000
G00 X231.756090 Y705.566590

G00 Z5.000000

(End cutting path id: path2896)


(Start cutting path id: path2896)
(Change tool to Cone cutter)

G00 Z5.000000
G00 X231.756090 Y705.566590

G00 Z5.000000

(End cutting path id: path2896)


(Start cutting path id: path2954)
(Change tool to Cone cutter)

G00 Z5.000000
G00 X234.732650 Y713.816590

G01 Z-1.000000 F100.0(Penetrate)
G02 X234.607942 Y713.515518 Z-1.000000 I-0.425780 J0.000000 F400.000000
G02 X234.306870 Y713.390810 Z-1.000000 I-0.301072 J0.301072
G02 X234.001667 Y713.516880 Z-1.000000 I0.000000 J0.432468
G02 X233.877180 Y713.816590 Z-1.000000 I0.298541 J0.299710
G02 X234.003038 Y714.120431 Z-1.000000 I0.429690 J-0.000000
G02 X234.306870 Y714.246280 Z-1.000000 I0.303832 J-0.303841
G02 X234.606575 Y714.121798 Z-1.000000 I0.000000 J-0.423028
G02 X234.732650 Y713.816590 Z-1.000000 I-0.306393 J-0.305208
G01 X234.732650 Y713.816590 Z-1.000000
G00 Z5.000000

(End cutting path id: path2954)


(Start cutting path id: path2954)
(Change tool to Cone cutter)

G00 Z5.000000
G00 X234.732650 Y713.816590

G01 Z-1.000000 F100.0(Penetrate)
G02 X234.607942 Y713.515518 Z-1.000000 I-0.425780 J0.000000 F400.000000
G02 X234.306870 Y713.390810 Z-1.000000 I-0.301072 J0.301072
G02 X234.001667 Y713.516880 Z-1.000000 I0.000000 J0.432468
G02 X233.877180 Y713.816590 Z-1.000000 I0.298541 J0.299710
G02 X234.003038 Y714.120431 Z-1.000000 I0.429690 J-0.000000
G02 X234.306870 Y714.246280 Z-1.000000 I0.303832 J-0.303841
G02 X234.606575 Y714.121798 Z-1.000000 I0.000000 J-0.423028
G02 X234.732650 Y713.816590 Z-1.000000 I-0.306393 J-0.305208
G01 X234.732650 Y713.816590 Z-1.000000
G00 Z5.000000

(End cutting path id: path2954)


(Start cutting path id: path2954)
(Change tool to Cone cutter)

G00 Z5.000000
G00 X234.732650 Y713.816590

G00 Z5.000000

(End cutting path id: path2954)


(Start cutting path id: path2954)
(Change tool to Cone cutter)

G00 Z5.000000
G00 X234.732650 Y713.816590

G00 Z5.000000

(End cutting path id: path2954)


(Start cutting path id: path2882)
(Change tool to Cone cutter)

G00 Z5.000000
G00 X237.142810 Y716.652530

G01 Z-1.000000 F100.0(Penetrate)
G01 X231.470930 Y716.652530 Z-1.000000 F400.000000
G01 X231.470930 Y710.984560 Z-1.000000
G01 X237.142810 Y710.984560 Z-1.000000
G01 X237.142810 Y716.652530 Z-1.000000
G00 Z5.000000

(End cutting path id: path2882)


(Start cutting path id: path2882)
(Change tool to Cone cutter)

G00 Z5.000000
G00 X237.142810 Y716.652530

G01 Z-1.000000 F100.0(Penetrate)
G01 X231.470930 Y716.652530 Z-1.000000 F400.000000
G01 X231.470930 Y710.984560 Z-1.000000
G01 X237.142810 Y710.984560 Z-1.000000
G01 X237.142810 Y716.652530 Z-1.000000
G00 Z5.000000

(End cutting path id: path2882)


(Start cutting path id: path2882)
(Change tool to Cone cutter)

G00 Z5.000000
G00 X237.142810 Y716.652530

G00 Z5.000000

(End cutting path id: path2882)


(Start cutting path id: path2882)
(Change tool to Cone cutter)

G00 Z5.000000
G00 X237.142810 Y716.652530

G00 Z5.000000

(End cutting path id: path2882)


(Start cutting path id: path2872)
(Change tool to Cone cutter)

G00 Z5.000000
G00 X253.490460 Y711.418160

G01 Z-1.000000 F100.0(Penetrate)
G01 X258.306870 Y711.418160 Z-1.000000 F400.000000
G01 X258.306870 Y716.234560 Z-1.000000
G01 X253.490460 Y716.234560 Z-1.000000
G01 X253.490460 Y711.418160 Z-1.000000
G00 Z5.000000

(End cutting path id: path2872)


(Start cutting path id: path2872)
(Change tool to Cone cutter)

G00 Z5.000000
G00 X253.490460 Y711.418160

G01 Z-1.000000 F100.0(Penetrate)
G01 X258.306870 Y711.418160 Z-1.000000 F400.000000
G01 X258.306870 Y716.234560 Z-1.000000
G01 X253.490460 Y716.234560 Z-1.000000
G01 X253.490460 Y711.418160 Z-1.000000
G00 Z5.000000

(End cutting path id: path2872)


(Start cutting path id: path2872)
(Change tool to Cone cutter)

G00 Z5.000000
G00 X253.490460 Y711.418160

G00 Z5.000000

(End cutting path id: path2872)


(Start cutting path id: path2872)
(Change tool to Cone cutter)

G00 Z5.000000
G00 X253.490460 Y711.418160

G00 Z5.000000

(End cutting path id: path2872)


(Start cutting path id: path2948)
(Change tool to Cone cutter)

G00 Z5.000000
G00 X256.334210 Y713.816590

G01 Z-1.000000 F100.0(Penetrate)
G02 X256.209728 Y713.516885 Z-1.000000 I-0.423028 J0.000000 F400.000000
G02 X255.904520 Y713.390810 Z-1.000000 I-0.305208 J0.306393
G02 X255.603448 Y713.515518 Z-1.000000 I0.000000 J0.425780
G02 X255.478740 Y713.816590 Z-1.000000 I0.301072 J0.301072
G02 X255.604815 Y714.121798 Z-1.000000 I0.432468 J0.000000
G02 X255.904520 Y714.246280 Z-1.000000 I0.299705 J-0.298546
G02 X256.208357 Y714.120427 Z-1.000000 I-0.000000 J-0.429690
G02 X256.334210 Y713.816590 Z-1.000000 I-0.303837 J-0.303837
G01 X256.334210 Y713.816590 Z-1.000000
G00 Z5.000000

(End cutting path id: path2948)


(Start cutting path id: path2948)
(Change tool to Cone cutter)

G00 Z5.000000
G00 X256.334210 Y713.816590

G01 Z-1.000000 F100.0(Penetrate)
G02 X256.209728 Y713.516885 Z-1.000000 I-0.423028 J0.000000 F400.000000
G02 X255.904520 Y713.390810 Z-1.000000 I-0.305208 J0.306393
G02 X255.603448 Y713.515518 Z-1.000000 I0.000000 J0.425780
G02 X255.478740 Y713.816590 Z-1.000000 I0.301072 J0.301072
G02 X255.604815 Y714.121798 Z-1.000000 I0.432468 J0.000000
G02 X255.904520 Y714.246280 Z-1.000000 I0.299705 J-0.298546
G02 X256.208357 Y714.120427 Z-1.000000 I-0.000000 J-0.429690
G02 X256.334210 Y713.816590 Z-1.000000 I-0.303837 J-0.303837
G01 X256.334210 Y713.816590 Z-1.000000
G00 Z5.000000

(End cutting path id: path2948)


(Start cutting path id: path2948)
(Change tool to Cone cutter)

G00 Z5.000000
G00 X256.334210 Y713.816590

G00 Z5.000000

(End cutting path id: path2948)


(Start cutting path id: path2948)
(Change tool to Cone cutter)

G00 Z5.000000
G00 X256.334210 Y713.816590

G00 Z5.000000

(End cutting path id: path2948)


(Start cutting path id: path2788)
(Change tool to Cone cutter)

G00 Z5.000000
G00 X263.107645 Y713.816590

G01 Z-1.000000 F100.0(Penetrate)
G01 X263.107645 Y706.617370 Z-1.000000 F400.000000
G00 Z5.000000

(End cutting path id: path2788)


(Start cutting path id: path2788)
(Change tool to Cone cutter)

G00 Z5.000000
G00 X263.107645 Y713.816590

G01 Z-1.000000 F100.0(Penetrate)
G01 X263.107645 Y706.617370 Z-1.000000 F400.000000
G00 Z5.000000

(End cutting path id: path2788)


(Start cutting path id: path2796)
(Change tool to Cone cutter)

G00 Z5.000000
G00 X263.107645 Y706.617370

G01 Z-1.000000 F100.0(Penetrate)
G01 X259.506085 Y703.019725 Z-1.000000 F400.000000
G00 Z5.000000

(End cutting path id: path2796)


(Start cutting path id: path2796)
(Change tool to Cone cutter)

G00 Z5.000000
G00 X263.107645 Y706.617370

G01 Z-1.000000 F100.0(Penetrate)
G01 X259.506085 Y703.019725 Z-1.000000 F400.000000
G00 Z5.000000

(End cutting path id: path2796)


(Start cutting path id: path2798)
(Change tool to Cone cutter)

G00 Z5.000000
G00 X259.506085 Y703.019725

G01 Z-1.000000 F100.0(Penetrate)
G01 X234.306865 Y703.019725 Z-1.000000 F400.000000
G00 Z5.000000

(End cutting path id: path2798)


(Start cutting path id: path2798)
(Change tool to Cone cutter)

G00 Z5.000000
G00 X259.506085 Y703.019725

G01 Z-1.000000 F100.0(Penetrate)
G01 X234.306865 Y703.019725 Z-1.000000 F400.000000
G00 Z5.000000

(End cutting path id: path2798)


(Start cutting path id: path2802)
(Change tool to Cone cutter)

G00 Z5.000000
G00 X252.306865 Y692.218945

G01 Z-1.000000 F100.0(Penetrate)
G01 X245.107645 Y685.019725 Z-1.000000 F400.000000
G00 Z5.000000

(End cutting path id: path2802)


(Start cutting path id: path2802)
(Change tool to Cone cutter)

G00 Z5.000000
G00 X252.306865 Y692.218945

G01 Z-1.000000 F100.0(Penetrate)
G01 X245.107645 Y685.019725 Z-1.000000 F400.000000
G00 Z5.000000

(End cutting path id: path2802)


(Start cutting path id: path2978)
(Change tool to Cone cutter)

G00 Z5.000000
G00 X245.533430 Y685.019720

G01 Z-1.000000 F100.0(Penetrate)
G02 X245.407360 Y684.714517 Z-1.000000 I-0.432468 J-0.000000 F400.000000
G02 X245.107650 Y684.590030 Z-1.000000 I-0.299710 J0.298541
G02 X244.803813 Y684.715883 Z-1.000000 I-0.000000 J0.429690
G02 X244.677960 Y685.019720 Z-1.000000 I0.303837 J0.303837
G02 X244.802447 Y685.319430 Z-1.000000 I0.423028 J0.000000
G02 X245.107650 Y685.445500 Z-1.000000 I0.305203 J-0.306398
G02 X245.408722 Y685.320792 Z-1.000000 I-0.000000 J-0.425780
G02 X245.533430 Y685.019720 Z-1.000000 I-0.301072 J-0.301072
G01 X245.533430 Y685.019720 Z-1.000000
G00 Z5.000000

(End cutting path id: path2978)


(Start cutting path id: path2978)
(Change tool to Cone cutter)

G00 Z5.000000
G00 X245.533430 Y685.019720

G01 Z-1.000000 F100.0(Penetrate)
G02 X245.407360 Y684.714517 Z-1.000000 I-0.432468 J-0.000000 F400.000000
G02 X245.107650 Y684.590030 Z-1.000000 I-0.299710 J0.298541
G02 X244.803813 Y684.715883 Z-1.000000 I-0.000000 J0.429690
G02 X244.677960 Y685.019720 Z-1.000000 I0.303837 J0.303837
G02 X244.802447 Y685.319430 Z-1.000000 I0.423028 J0.000000
G02 X245.107650 Y685.445500 Z-1.000000 I0.305203 J-0.306398
G02 X245.408722 Y685.320792 Z-1.000000 I-0.000000 J-0.425780
G02 X245.533430 Y685.019720 Z-1.000000 I-0.301072 J-0.301072
G01 X245.533430 Y685.019720 Z-1.000000
G00 Z5.000000

(End cutting path id: path2978)


(Start cutting path id: path2978)
(Change tool to Cone cutter)

G00 Z5.000000
G00 X245.533430 Y685.019720

G00 Z5.000000

(End cutting path id: path2978)


(Start cutting path id: path2978)
(Change tool to Cone cutter)

G00 Z5.000000
G00 X245.533430 Y685.019720

G00 Z5.000000

(End cutting path id: path2978)


(Start cutting path id: path2916)
(Change tool to Cone cutter)

G00 Z5.000000
G00 X247.377180 Y685.019720

G01 Z-1.000000 F100.0(Penetrate)
G02 X246.711092 Y683.410796 Z-1.000000 I-2.276207 J0.000000 F400.000000
G02 X245.107650 Y682.746280 Z-1.000000 I-1.603442 J1.602252
G02 X243.500085 Y683.412155 Z-1.000000 I0.000000 J2.273440
G02 X242.834210 Y685.019720 Z-1.000000 I1.607565 J1.607565
G02 X243.498726 Y686.623162 Z-1.000000 I2.266768 J-0.000000
G02 X245.107650 Y687.289250 Z-1.000000 I1.608924 J-1.610119
G02 X246.712450 Y686.624520 Z-1.000000 I-0.000000 J-2.269530
G02 X247.377180 Y685.019720 Z-1.000000 I-1.604800 J-1.604800
G01 X247.377180 Y685.019720 Z-1.000000
G00 Z5.000000

(End cutting path id: path2916)


(Start cutting path id: path2916)
(Change tool to Cone cutter)

G00 Z5.000000
G00 X247.377180 Y685.019720

G01 Z-1.000000 F100.0(Penetrate)
G02 X246.711092 Y683.410796 Z-1.000000 I-2.276207 J0.000000 F400.000000
G02 X245.107650 Y682.746280 Z-1.000000 I-1.603442 J1.602252
G02 X243.500085 Y683.412155 Z-1.000000 I0.000000 J2.273440
G02 X242.834210 Y685.019720 Z-1.000000 I1.607565 J1.607565
G02 X243.498726 Y686.623162 Z-1.000000 I2.266768 J-0.000000
G02 X245.107650 Y687.289250 Z-1.000000 I1.608924 J-1.610119
G02 X246.712450 Y686.624520 Z-1.000000 I-0.000000 J-2.269530
G02 X247.377180 Y685.019720 Z-1.000000 I-1.604800 J-1.604800
G01 X247.377180 Y685.019720 Z-1.000000
G00 Z5.000000

(End cutting path id: path2916)


(Start cutting path id: path2916)
(Change tool to Cone cutter)

G00 Z5.000000
G00 X247.377180 Y685.019720

G00 Z5.000000

(End cutting path id: path2916)


(Start cutting path id: path2916)
(Change tool to Cone cutter)

G00 Z5.000000
G00 X247.377180 Y685.019720

G00 Z5.000000

(End cutting path id: path2916)


(Start cutting path id: path2894)
(Change tool to Cone cutter)

G00 Z5.000000
G00 X257.224840 Y689.082220

G01 Z-1.000000 F100.0(Penetrate)
G01 X257.224840 Y684.554880 Z-1.000000 F400.000000
G01 X261.771710 Y684.554880 Z-1.000000
G01 X261.771710 Y689.082220 Z-1.000000
G01 X257.224840 Y689.082220 Z-1.000000
G00 Z5.000000

(End cutting path id: path2894)


(Start cutting path id: path2894)
(Change tool to Cone cutter)

G00 Z5.000000
G00 X257.224840 Y689.082220

G01 Z-1.000000 F100.0(Penetrate)
G01 X257.224840 Y684.554880 Z-1.000000 F400.000000
G01 X261.771710 Y684.554880 Z-1.000000
G01 X261.771710 Y689.082220 Z-1.000000
G01 X257.224840 Y689.082220 Z-1.000000
G00 Z5.000000

(End cutting path id: path2894)


(Start cutting path id: path2894)
(Change tool to Cone cutter)

G00 Z5.000000
G00 X257.224840 Y689.082220

G00 Z5.000000

(End cutting path id: path2894)


(Start cutting path id: path2894)
(Change tool to Cone cutter)

G00 Z5.000000
G00 X257.224840 Y689.082220

G00 Z5.000000

(End cutting path id: path2894)


(Start cutting path id: path2966)
(Change tool to Cone cutter)

G00 Z5.000000
G00 X259.935770 Y686.816590

G01 Z-1.000000 F100.0(Penetrate)
G02 X259.811287 Y686.516881 Z-1.000000 I-0.423035 J-0.000000 F400.000000
G02 X259.506090 Y686.390810 Z-1.000000 I-0.305197 J0.306379
G02 X259.205014 Y686.515523 Z-1.000000 I0.000000 J0.425780
G02 X259.080310 Y686.816590 Z-1.000000 I0.301076 J0.301067
G02 X259.206380 Y687.121793 Z-1.000000 I0.432468 J0.000000
G02 X259.506090 Y687.246280 Z-1.000000 I0.299710 J-0.298541
G02 X259.809916 Y687.120430 Z-1.000000 I0.000000 J-0.429673
G02 X259.935770 Y686.816590 Z-1.000000 I-0.303843 J-0.303840
G01 X259.935770 Y686.816590 Z-1.000000
G00 Z5.000000

(End cutting path id: path2966)


(Start cutting path id: path2966)
(Change tool to Cone cutter)

G00 Z5.000000
G00 X259.935770 Y686.816590

G01 Z-1.000000 F100.0(Penetrate)
G02 X259.811287 Y686.516881 Z-1.000000 I-0.423035 J-0.000000 F400.000000
G02 X259.506090 Y686.390810 Z-1.000000 I-0.305197 J0.306379
G02 X259.205014 Y686.515523 Z-1.000000 I0.000000 J0.425780
G02 X259.080310 Y686.816590 Z-1.000000 I0.301076 J0.301067
G02 X259.206380 Y687.121793 Z-1.000000 I0.432468 J0.000000
G02 X259.506090 Y687.246280 Z-1.000000 I0.299710 J-0.298541
G02 X259.809916 Y687.120430 Z-1.000000 I0.000000 J-0.429673
G02 X259.935770 Y686.816590 Z-1.000000 I-0.303843 J-0.303840
G01 X259.935770 Y686.816590 Z-1.000000
G00 Z5.000000

(End cutting path id: path2966)


(Start cutting path id: path2966)
(Change tool to Cone cutter)

G00 Z5.000000
G00 X259.935770 Y686.816590

G00 Z5.000000

(End cutting path id: path2966)


(Start cutting path id: path2966)
(Change tool to Cone cutter)

G00 Z5.000000
G00 X259.935770 Y686.816590

G00 Z5.000000

(End cutting path id: path2966)


(Start cutting path id: path2870)
(Change tool to Cone cutter)

G00 Z5.000000
G00 X266.705310 Y686.816590

G01 Z-1.000000 F100.0(Penetrate)
G01 X266.705310 Y689.086130 Z-1.000000 F400.000000
G02 X268.310107 Y688.421401 Z-1.000000 I0.000000 J-2.269523
G02 X268.974840 Y686.816590 Z-1.000000 I-1.604814 J-1.604811
G02 X268.311472 Y685.215915 Z-1.000000 I-2.262858 J0.000000
G02 X266.705310 Y684.550970 Z-1.000000 I-1.606162 J1.607352
G01 X266.705310 Y686.816590 Z-1.000000
G00 Z5.000000

(End cutting path id: path2870)


(Start cutting path id: path2870)
(Change tool to Cone cutter)

G00 Z5.000000
G00 X266.705310 Y686.816590

G01 Z-1.000000 F100.0(Penetrate)
G01 X266.705310 Y689.086130 Z-1.000000 F400.000000
G02 X268.310107 Y688.421401 Z-1.000000 I0.000000 J-2.269523
G02 X268.974840 Y686.816590 Z-1.000000 I-1.604814 J-1.604811
G02 X268.311472 Y685.215915 Z-1.000000 I-2.262858 J0.000000
G02 X266.705310 Y684.550970 Z-1.000000 I-1.606162 J1.607352
G01 X266.705310 Y686.816590 Z-1.000000
G00 Z5.000000

(End cutting path id: path2870)


(Start cutting path id: path2870)
(Change tool to Cone cutter)

G00 Z5.000000
G00 X266.705310 Y686.816590

G00 Z5.000000

(End cutting path id: path2870)


(Start cutting path id: path2870)
(Change tool to Cone cutter)

G00 Z5.000000
G00 X266.705310 Y686.816590

G00 Z5.000000

(End cutting path id: path2870)


(Start cutting path id: path2868)
(Change tool to Cone cutter)

G00 Z5.000000
G00 X266.705310 Y686.816590

G01 Z-1.000000 F100.0(Penetrate)
G01 X266.705310 Y684.550970 Z-1.000000 F400.000000
G02 X265.103269 Y685.214554 Z-1.000000 I0.000000 J2.265637
G02 X264.439680 Y686.816590 Z-1.000000 I1.602024 J1.602036
G02 X265.104633 Y688.422763 Z-1.000000 I2.272307 J0.000000
G02 X266.705310 Y689.086130 Z-1.000000 I1.600677 J-1.599501
G01 X266.705310 Y686.816590 Z-1.000000
G00 Z5.000000

(End cutting path id: path2868)


(Start cutting path id: path2868)
(Change tool to Cone cutter)

G00 Z5.000000
G00 X266.705310 Y686.816590

G01 Z-1.000000 F100.0(Penetrate)
G01 X266.705310 Y684.550970 Z-1.000000 F400.000000
G02 X265.103269 Y685.214554 Z-1.000000 I0.000000 J2.265637
G02 X264.439680 Y686.816590 Z-1.000000 I1.602024 J1.602036
G02 X265.104633 Y688.422763 Z-1.000000 I2.272307 J0.000000
G02 X266.705310 Y689.086130 Z-1.000000 I1.600677 J-1.599501
G01 X266.705310 Y686.816590 Z-1.000000
G00 Z5.000000

(End cutting path id: path2868)


(Start cutting path id: path2868)
(Change tool to Cone cutter)

G00 Z5.000000
G00 X266.705310 Y686.816590

G00 Z5.000000

(End cutting path id: path2868)


(Start cutting path id: path2868)
(Change tool to Cone cutter)

G00 Z5.000000
G00 X266.705310 Y686.816590

G00 Z5.000000

(End cutting path id: path2868)


(Start cutting path id: path2946)
(Change tool to Cone cutter)

G00 Z5.000000
G00 X267.134990 Y686.816590

G01 Z-1.000000 F100.0(Penetrate)
G02 X267.010507 Y686.516881 Z-1.000000 I-0.423035 J-0.000000 F400.000000
G02 X266.705310 Y686.390810 Z-1.000000 I-0.305197 J0.306379
G02 X266.404227 Y686.515522 Z-1.000000 I0.000000 J0.425797
G02 X266.279520 Y686.816590 Z-1.000000 I0.301065 J0.301068
G02 X266.405594 Y687.121794 Z-1.000000 I0.432461 J-0.000000
G02 X266.705310 Y687.246280 Z-1.000000 I0.299716 J-0.298559
G02 X267.009136 Y687.120430 Z-1.000000 I0.000000 J-0.429673
G02 X267.134990 Y686.816590 Z-1.000000 I-0.303843 J-0.303840
G01 X267.134990 Y686.816590 Z-1.000000
G00 Z5.000000

(End cutting path id: path2946)


(Start cutting path id: path2946)
(Change tool to Cone cutter)

G00 Z5.000000
G00 X267.134990 Y686.816590

G01 Z-1.000000 F100.0(Penetrate)
G02 X267.010507 Y686.516881 Z-1.000000 I-0.423035 J-0.000000 F400.000000
G02 X266.705310 Y686.390810 Z-1.000000 I-0.305197 J0.306379
G02 X266.404227 Y686.515522 Z-1.000000 I0.000000 J0.425797
G02 X266.279520 Y686.816590 Z-1.000000 I0.301065 J0.301068
G02 X266.405594 Y687.121794 Z-1.000000 I0.432461 J-0.000000
G02 X266.705310 Y687.246280 Z-1.000000 I0.299716 J-0.298559
G02 X267.009136 Y687.120430 Z-1.000000 I0.000000 J-0.429673
G02 X267.134990 Y686.816590 Z-1.000000 I-0.303843 J-0.303840
G01 X267.134990 Y686.816590 Z-1.000000
G00 Z5.000000

(End cutting path id: path2946)


(Start cutting path id: path2946)
(Change tool to Cone cutter)

G00 Z5.000000
G00 X267.134990 Y686.816590

G00 Z5.000000

(End cutting path id: path2946)


(Start cutting path id: path2946)
(Change tool to Cone cutter)

G00 Z5.000000
G00 X267.134990 Y686.816590

G00 Z5.000000

(End cutting path id: path2946)


(Start cutting path id: path2834)
(Change tool to Cone cutter)

G00 Z5.000000
G00 X273.904520 Y686.816590

G01 Z-1.000000 F100.0(Penetrate)
G01 X273.904520 Y689.086130 Z-1.000000 F400.000000
G02 X275.509327 Y688.421397 Z-1.000000 I0.000000 J-2.269540
G02 X276.174060 Y686.816590 Z-1.000000 I-1.604807 J-1.604807
G02 X275.510692 Y685.215919 Z-1.000000 I-2.262851 J0.000000
G02 X273.904520 Y684.550970 Z-1.000000 I-1.606172 J1.607365
G01 X273.904520 Y686.816590 Z-1.000000
G00 Z5.000000

(End cutting path id: path2834)


(Start cutting path id: path2834)
(Change tool to Cone cutter)

G00 Z5.000000
G00 X273.904520 Y686.816590

G01 Z-1.000000 F100.0(Penetrate)
G01 X273.904520 Y689.086130 Z-1.000000 F400.000000
G02 X275.509327 Y688.421397 Z-1.000000 I0.000000 J-2.269540
G02 X276.174060 Y686.816590 Z-1.000000 I-1.604807 J-1.604807
G02 X275.510692 Y685.215919 Z-1.000000 I-2.262851 J0.000000
G02 X273.904520 Y684.550970 Z-1.000000 I-1.606172 J1.607365
G01 X273.904520 Y686.816590 Z-1.000000
G00 Z5.000000

(End cutting path id: path2834)


(Start cutting path id: path2834)
(Change tool to Cone cutter)

G00 Z5.000000
G00 X273.904520 Y686.816590

G00 Z5.000000

(End cutting path id: path2834)


(Start cutting path id: path2834)
(Change tool to Cone cutter)

G00 Z5.000000
G00 X273.904520 Y686.816590

G00 Z5.000000

(End cutting path id: path2834)


(Start cutting path id: path2832)
(Change tool to Cone cutter)

G00 Z5.000000
G00 X273.904520 Y686.816590

G01 Z-1.000000 F100.0(Penetrate)
G01 X273.904520 Y684.550970 Z-1.000000 F400.000000
G02 X272.302485 Y685.214555 Z-1.000000 I-0.000000 J2.265620
G02 X271.638900 Y686.816590 Z-1.000000 I1.602035 J1.602035
G02 X272.303849 Y688.422762 Z-1.000000 I2.272314 J-0.000000
G02 X273.904520 Y689.086130 Z-1.000000 I1.600671 J-1.599483
G01 X273.904520 Y686.816590 Z-1.000000
G00 Z5.000000

(End cutting path id: path2832)


(Start cutting path id: path2832)
(Change tool to Cone cutter)

G00 Z5.000000
G00 X273.904520 Y686.816590

G01 Z-1.000000 F100.0(Penetrate)
G01 X273.904520 Y684.550970 Z-1.000000 F400.000000
G02 X272.302485 Y685.214555 Z-1.000000 I-0.000000 J2.265620
G02 X271.638900 Y686.816590 Z-1.000000 I1.602035 J1.602035
G02 X272.303849 Y688.422762 Z-1.000000 I2.272314 J-0.000000
G02 X273.904520 Y689.086130 Z-1.000000 I1.600671 J-1.599483
G01 X273.904520 Y686.816590 Z-1.000000
G00 Z5.000000

(End cutting path id: path2832)


(Start cutting path id: path2832)
(Change tool to Cone cutter)

G00 Z5.000000
G00 X273.904520 Y686.816590

G00 Z5.000000

(End cutting path id: path2832)


(Start cutting path id: path2832)
(Change tool to Cone cutter)

G00 Z5.000000
G00 X273.904520 Y686.816590

G00 Z5.000000

(End cutting path id: path2832)


(Start cutting path id: path2746)
(Change tool to Cone cutter)

G00 Z5.000000
G00 X273.904525 Y686.816590

G01 Z-1.000000 F100.0(Penetrate)
G01 X273.904525 Y683.218945 Z-1.000000 F400.000000
G00 Z5.000000

(End cutting path id: path2746)


(Start cutting path id: path2746)
(Change tool to Cone cutter)

G00 Z5.000000
G00 X273.904525 Y686.816590

G01 Z-1.000000 F100.0(Penetrate)
G01 X273.904525 Y683.218945 Z-1.000000 F400.000000
G00 Z5.000000

(End cutting path id: path2746)


(Start cutting path id: path2734)
(Change tool to Cone cutter)

G00 Z5.000000
G00 X273.904525 Y683.218945

G01 Z-1.000000 F100.0(Penetrate)
G01 X286.384990 Y670.738465 Z-1.000000 F400.000000
G00 Z5.000000

(End cutting path id: path2734)


(Start cutting path id: path2734)
(Change tool to Cone cutter)

G00 Z5.000000
G00 X273.904525 Y683.218945

G01 Z-1.000000 F100.0(Penetrate)
G01 X286.384990 Y670.738465 Z-1.000000 F400.000000
G00 Z5.000000

(End cutting path id: path2734)


(Start cutting path id: path2732)
(Change tool to Cone cutter)

G00 Z5.000000
G00 X286.384990 Y670.738465

G01 Z-1.000000 F100.0(Penetrate)
G01 X291.787330 Y670.738465 Z-1.000000 F400.000000
G00 Z5.000000

(End cutting path id: path2732)


(Start cutting path id: path2732)
(Change tool to Cone cutter)

G00 Z5.000000
G00 X286.384990 Y670.738465

G01 Z-1.000000 F100.0(Penetrate)
G01 X291.787330 Y670.738465 Z-1.000000 F400.000000
G00 Z5.000000

(End cutting path id: path2732)


(Start cutting path id: path2736)
(Change tool to Cone cutter)

G00 Z5.000000
G00 X291.787330 Y670.738465

G01 Z-1.000000 F100.0(Penetrate)
G01 X289.986550 Y670.738465 Z-1.000000 F400.000000
G00 Z5.000000

(End cutting path id: path2736)


(Start cutting path id: path2736)
(Change tool to Cone cutter)

G00 Z5.000000
G00 X291.787330 Y670.738465

G01 Z-1.000000 F100.0(Penetrate)
G01 X289.986550 Y670.738465 Z-1.000000 F400.000000
G00 Z5.000000

(End cutting path id: path2736)


(Start cutting path id: path2936)
(Change tool to Cone cutter)

G00 Z5.000000
G00 X281.533430 Y665.218940

G01 Z-1.000000 F100.0(Penetrate)
G02 X281.407360 Y664.913737 Z-1.000000 I-0.432468 J0.000000 F400.000000
G02 X281.107650 Y664.789250 Z-1.000000 I-0.299710 J0.298541
G02 X280.803813 Y664.915103 Z-1.000000 I0.000000 J0.429690
G02 X280.677960 Y665.218940 Z-1.000000 I0.303837 J0.303837
G02 X280.802447 Y665.518650 Z-1.000000 I0.423028 J0.000000
G02 X281.107650 Y665.644720 Z-1.000000 I0.305203 J-0.306398
G02 X281.408722 Y665.520012 Z-1.000000 I0.000000 J-0.425780
G02 X281.533430 Y665.218940 Z-1.000000 I-0.301072 J-0.301072
G01 X281.533430 Y665.218940 Z-1.000000
G00 Z5.000000

(End cutting path id: path2936)


(Start cutting path id: path2936)
(Change tool to Cone cutter)

G00 Z5.000000
G00 X281.533430 Y665.218940

G01 Z-1.000000 F100.0(Penetrate)
G02 X281.407360 Y664.913737 Z-1.000000 I-0.432468 J0.000000 F400.000000
G02 X281.107650 Y664.789250 Z-1.000000 I-0.299710 J0.298541
G02 X280.803813 Y664.915103 Z-1.000000 I0.000000 J0.429690
G02 X280.677960 Y665.218940 Z-1.000000 I0.303837 J0.303837
G02 X280.802447 Y665.518650 Z-1.000000 I0.423028 J0.000000
G02 X281.107650 Y665.644720 Z-1.000000 I0.305203 J-0.306398
G02 X281.408722 Y665.520012 Z-1.000000 I0.000000 J-0.425780
G02 X281.533430 Y665.218940 Z-1.000000 I-0.301072 J-0.301072
G01 X281.533430 Y665.218940 Z-1.000000
G00 Z5.000000

(End cutting path id: path2936)


(Start cutting path id: path2936)
(Change tool to Cone cutter)

G00 Z5.000000
G00 X281.533430 Y665.218940

G00 Z5.000000

(End cutting path id: path2936)


(Start cutting path id: path2936)
(Change tool to Cone cutter)

G00 Z5.000000
G00 X281.533430 Y665.218940

G00 Z5.000000

(End cutting path id: path2936)


(Start cutting path id: path2854)
(Change tool to Cone cutter)

G00 Z5.000000
G00 X281.107650 Y665.218940

G01 Z-1.000000 F100.0(Penetrate)
G01 X281.107650 Y667.484560 Z-1.000000 F400.000000
G02 X282.709685 Y666.820975 Z-1.000000 I-0.000000 J-2.265620
G02 X283.373270 Y665.218940 Z-1.000000 I-1.602035 J-1.602035
G02 X282.708320 Y663.612774 Z-1.000000 I-2.272297 J0.000000
G02 X281.107650 Y662.949410 Z-1.000000 I-1.600670 J1.599494
G01 X281.107650 Y665.218940 Z-1.000000
G00 Z5.000000

(End cutting path id: path2854)


(Start cutting path id: path2854)
(Change tool to Cone cutter)

G00 Z5.000000
G00 X281.107650 Y665.218940

G01 Z-1.000000 F100.0(Penetrate)
G01 X281.107650 Y667.484560 Z-1.000000 F400.000000
G02 X282.709685 Y666.820975 Z-1.000000 I-0.000000 J-2.265620
G02 X283.373270 Y665.218940 Z-1.000000 I-1.602035 J-1.602035
G02 X282.708320 Y663.612774 Z-1.000000 I-2.272297 J0.000000
G02 X281.107650 Y662.949410 Z-1.000000 I-1.600670 J1.599494
G01 X281.107650 Y665.218940 Z-1.000000
G00 Z5.000000

(End cutting path id: path2854)


(Start cutting path id: path2854)
(Change tool to Cone cutter)

G00 Z5.000000
G00 X281.107650 Y665.218940

G00 Z5.000000

(End cutting path id: path2854)


(Start cutting path id: path2854)
(Change tool to Cone cutter)

G00 Z5.000000
G00 X281.107650 Y665.218940

G00 Z5.000000

(End cutting path id: path2854)


(Start cutting path id: path2852)
(Change tool to Cone cutter)

G00 Z5.000000
G00 X281.107650 Y665.218940

G01 Z-1.000000 F100.0(Penetrate)
G01 X281.107650 Y662.949410 Z-1.000000 F400.000000
G02 X279.502850 Y663.614140 Z-1.000000 I-0.000000 J2.269530
G02 X278.838120 Y665.218940 Z-1.000000 I1.604800 J1.604800
G02 X279.501484 Y666.819610 Z-1.000000 I2.262858 J-0.000000
G02 X281.107650 Y667.484560 Z-1.000000 I1.606166 J-1.607347
G01 X281.107650 Y665.218940 Z-1.000000
G00 Z5.000000

(End cutting path id: path2852)


(Start cutting path id: path2852)
(Change tool to Cone cutter)

G00 Z5.000000
G00 X281.107650 Y665.218940

G01 Z-1.000000 F100.0(Penetrate)
G01 X281.107650 Y662.949410 Z-1.000000 F400.000000
G02 X279.502850 Y663.614140 Z-1.000000 I-0.000000 J2.269530
G02 X278.838120 Y665.218940 Z-1.000000 I1.604800 J1.604800
G02 X279.501484 Y666.819610 Z-1.000000 I2.262858 J-0.000000
G02 X281.107650 Y667.484560 Z-1.000000 I1.606166 J-1.607347
G01 X281.107650 Y665.218940 Z-1.000000
G00 Z5.000000

(End cutting path id: path2852)


(Start cutting path id: path2852)
(Change tool to Cone cutter)

G00 Z5.000000
G00 X281.107650 Y665.218940

G00 Z5.000000

(End cutting path id: path2852)


(Start cutting path id: path2852)
(Change tool to Cone cutter)

G00 Z5.000000
G00 X281.107650 Y665.218940

G00 Z5.000000

(End cutting path id: path2852)


(Start cutting path id: path2772)
(Change tool to Cone cutter)

G00 Z5.000000
G00 X284.705305 Y661.617370

G01 Z-1.000000 F100.0(Penetrate)
G01 X281.107645 Y665.218945 Z-1.000000 F400.000000
G00 Z5.000000

(End cutting path id: path2772)


(Start cutting path id: path2772)
(Change tool to Cone cutter)

G00 Z5.000000
G00 X284.705305 Y661.617370

G01 Z-1.000000 F100.0(Penetrate)
G01 X281.107645 Y665.218945 Z-1.000000 F400.000000
G00 Z5.000000

(End cutting path id: path2772)


(Start cutting path id: path2938)
(Change tool to Cone cutter)

G00 Z5.000000
G00 X274.334210 Y665.218940

G01 Z-1.000000 F100.0(Penetrate)
G02 X274.208361 Y664.915108 Z-1.000000 I-0.429690 J0.000000 F400.000000
G02 X273.904520 Y664.789250 Z-1.000000 I-0.303841 J0.303832
G02 X273.604810 Y664.913737 Z-1.000000 I-0.000000 J0.423028
G02 X273.478740 Y665.218940 Z-1.000000 I0.306398 J0.305203
G02 X273.603448 Y665.520012 Z-1.000000 I0.425780 J0.000000
G02 X273.904520 Y665.644720 Z-1.000000 I0.301072 J-0.301072
G02 X274.209728 Y665.518645 Z-1.000000 I-0.000000 J-0.432468
G02 X274.334210 Y665.218940 Z-1.000000 I-0.298546 J-0.299705
G01 X274.334210 Y665.218940 Z-1.000000
G00 Z5.000000

(End cutting path id: path2938)


(Start cutting path id: path2938)
(Change tool to Cone cutter)

G00 Z5.000000
G00 X274.334210 Y665.218940

G01 Z-1.000000 F100.0(Penetrate)
G02 X274.208361 Y664.915108 Z-1.000000 I-0.429690 J0.000000 F400.000000
G02 X273.904520 Y664.789250 Z-1.000000 I-0.303841 J0.303832
G02 X273.604810 Y664.913737 Z-1.000000 I-0.000000 J0.423028
G02 X273.478740 Y665.218940 Z-1.000000 I0.306398 J0.305203
G02 X273.603448 Y665.520012 Z-1.000000 I0.425780 J0.000000
G02 X273.904520 Y665.644720 Z-1.000000 I0.301072 J-0.301072
G02 X274.209728 Y665.518645 Z-1.000000 I-0.000000 J-0.432468
G02 X274.334210 Y665.218940 Z-1.000000 I-0.298546 J-0.299705
G01 X274.334210 Y665.218940 Z-1.000000
G00 Z5.000000

(End cutting path id: path2938)


(Start cutting path id: path2938)
(Change tool to Cone cutter)

G00 Z5.000000
G00 X274.334210 Y665.218940

G00 Z5.000000

(End cutting path id: path2938)


(Start cutting path id: path2938)
(Change tool to Cone cutter)

G00 Z5.000000
G00 X274.334210 Y665.218940

G00 Z5.000000

(End cutting path id: path2938)


(Start cutting path id: path2774)
(Change tool to Cone cutter)

G00 Z5.000000
G00 X273.904525 Y665.218945

G01 Z-1.000000 F100.0(Penetrate)
G01 X273.904525 Y672.418150 Z-1.000000 F400.000000
G00 Z5.000000

(End cutting path id: path2774)


(Start cutting path id: path2774)
(Change tool to Cone cutter)

G00 Z5.000000
G00 X273.904525 Y665.218945

G01 Z-1.000000 F100.0(Penetrate)
G01 X273.904525 Y672.418150 Z-1.000000 F400.000000
G00 Z5.000000

(End cutting path id: path2774)


(Start cutting path id: path2776)
(Change tool to Cone cutter)

G00 Z5.000000
G00 X273.904525 Y672.418150

G01 Z-1.000000 F100.0(Penetrate)
G01 X266.705305 Y679.617370 Z-1.000000 F400.000000
G00 Z5.000000

(End cutting path id: path2776)


(Start cutting path id: path2776)
(Change tool to Cone cutter)

G00 Z5.000000
G00 X273.904525 Y672.418150

G01 Z-1.000000 F100.0(Penetrate)
G01 X266.705305 Y679.617370 Z-1.000000 F400.000000
G00 Z5.000000

(End cutting path id: path2776)


(Start cutting path id: path2820)
(Change tool to Cone cutter)

G00 Z5.000000
G00 X266.705305 Y679.617370

G01 Z-1.000000 F100.0(Penetrate)
G01 X266.705305 Y686.816590 Z-1.000000 F400.000000
G00 Z5.000000

(End cutting path id: path2820)


(Start cutting path id: path2820)
(Change tool to Cone cutter)

G00 Z5.000000
G00 X266.705305 Y679.617370

G01 Z-1.000000 F100.0(Penetrate)
G01 X266.705305 Y686.816590 Z-1.000000 F400.000000
G00 Z5.000000

(End cutting path id: path2820)


(Start cutting path id: path2922)
(Change tool to Cone cutter)

G00 Z5.000000
G00 X274.334210 Y686.816590

G01 Z-1.000000 F100.0(Penetrate)
G02 X274.209728 Y686.516885 Z-1.000000 I-0.423028 J0.000000 F400.000000
G02 X273.904520 Y686.390810 Z-1.000000 I-0.305208 J0.306393
G02 X273.603448 Y686.515518 Z-1.000000 I0.000000 J0.425780
G02 X273.478740 Y686.816590 Z-1.000000 I0.301072 J0.301072
G02 X273.604815 Y687.121798 Z-1.000000 I0.432468 J0.000000
G02 X273.904520 Y687.246280 Z-1.000000 I0.299705 J-0.298546
G02 X274.208357 Y687.120427 Z-1.000000 I-0.000000 J-0.429690
G02 X274.334210 Y686.816590 Z-1.000000 I-0.303837 J-0.303837
G01 X274.334210 Y686.816590 Z-1.000000
G00 Z5.000000

(End cutting path id: path2922)


(Start cutting path id: path2922)
(Change tool to Cone cutter)

G00 Z5.000000
G00 X274.334210 Y686.816590

G01 Z-1.000000 F100.0(Penetrate)
G02 X274.209728 Y686.516885 Z-1.000000 I-0.423028 J0.000000 F400.000000
G02 X273.904520 Y686.390810 Z-1.000000 I-0.305208 J0.306393
G02 X273.603448 Y686.515518 Z-1.000000 I0.000000 J0.425780
G02 X273.478740 Y686.816590 Z-1.000000 I0.301072 J0.301072
G02 X273.604815 Y687.121798 Z-1.000000 I0.432468 J0.000000
G02 X273.904520 Y687.246280 Z-1.000000 I0.299705 J-0.298546
G02 X274.208357 Y687.120427 Z-1.000000 I-0.000000 J-0.429690
G02 X274.334210 Y686.816590 Z-1.000000 I-0.303837 J-0.303837
G01 X274.334210 Y686.816590 Z-1.000000
G00 Z5.000000

(End cutting path id: path2922)


(Start cutting path id: path2922)
(Change tool to Cone cutter)

G00 Z5.000000
G00 X274.334210 Y686.816590

G00 Z5.000000

(End cutting path id: path2922)


(Start cutting path id: path2922)
(Change tool to Cone cutter)

G00 Z5.000000
G00 X274.334210 Y686.816590

G00 Z5.000000

(End cutting path id: path2922)


(Start cutting path id: path2862)
(Change tool to Cone cutter)

G00 Z5.000000
G00 X281.107650 Y686.816590

G01 Z-1.000000 F100.0(Penetrate)
G01 X281.107650 Y689.086130 Z-1.000000 F400.000000
G02 X282.708321 Y688.422762 Z-1.000000 I0.000000 J-2.262851
G02 X283.373270 Y686.816590 Z-1.000000 I-1.607365 J-1.606172
G02 X282.709685 Y685.214555 Z-1.000000 I-2.265620 J-0.000000
G02 X281.107650 Y684.550970 Z-1.000000 I-1.602035 J1.602035
G01 X281.107650 Y686.816590 Z-1.000000
G00 Z5.000000

(End cutting path id: path2862)


(Start cutting path id: path2862)
(Change tool to Cone cutter)

G00 Z5.000000
G00 X281.107650 Y686.816590

G01 Z-1.000000 F100.0(Penetrate)
G01 X281.107650 Y689.086130 Z-1.000000 F400.000000
G02 X282.708321 Y688.422762 Z-1.000000 I0.000000 J-2.262851
G02 X283.373270 Y686.816590 Z-1.000000 I-1.607365 J-1.606172
G02 X282.709685 Y685.214555 Z-1.000000 I-2.265620 J-0.000000
G02 X281.107650 Y684.550970 Z-1.000000 I-1.602035 J1.602035
G01 X281.107650 Y686.816590 Z-1.000000
G00 Z5.000000

(End cutting path id: path2862)


(Start cutting path id: path2862)
(Change tool to Cone cutter)

G00 Z5.000000
G00 X281.107650 Y686.816590

G00 Z5.000000

(End cutting path id: path2862)


(Start cutting path id: path2862)
(Change tool to Cone cutter)

G00 Z5.000000
G00 X281.107650 Y686.816590

G00 Z5.000000

(End cutting path id: path2862)


(Start cutting path id: path2860)
(Change tool to Cone cutter)

G00 Z5.000000
G00 X281.107650 Y686.816590

G01 Z-1.000000 F100.0(Penetrate)
G01 X281.107650 Y684.550970 Z-1.000000 F400.000000
G02 X279.501484 Y685.215920 Z-1.000000 I-0.000000 J2.272297
G02 X278.838120 Y686.816590 Z-1.000000 I1.599494 J1.600670
G02 X279.502849 Y688.421396 Z-1.000000 I2.269547 J0.000000
G02 X281.107650 Y689.086130 Z-1.000000 I1.604801 J-1.604789
G01 X281.107650 Y686.816590 Z-1.000000
G00 Z5.000000

(End cutting path id: path2860)


(Start cutting path id: path2860)
(Change tool to Cone cutter)

G00 Z5.000000
G00 X281.107650 Y686.816590

G01 Z-1.000000 F100.0(Penetrate)
G01 X281.107650 Y684.550970 Z-1.000000 F400.000000
G02 X279.501484 Y685.215920 Z-1.000000 I-0.000000 J2.272297
G02 X278.838120 Y686.816590 Z-1.000000 I1.599494 J1.600670
G02 X279.502849 Y688.421396 Z-1.000000 I2.269547 J0.000000
G02 X281.107650 Y689.086130 Z-1.000000 I1.604801 J-1.604789
G01 X281.107650 Y686.816590 Z-1.000000
G00 Z5.000000

(End cutting path id: path2860)


(Start cutting path id: path2860)
(Change tool to Cone cutter)

G00 Z5.000000
G00 X281.107650 Y686.816590

G00 Z5.000000

(End cutting path id: path2860)


(Start cutting path id: path2860)
(Change tool to Cone cutter)

G00 Z5.000000
G00 X281.107650 Y686.816590

G00 Z5.000000

(End cutting path id: path2860)


(Start cutting path id: path2940)
(Change tool to Cone cutter)

G00 Z5.000000
G00 X281.533430 Y686.816590

G01 Z-1.000000 F100.0(Penetrate)
G02 X281.408722 Y686.515518 Z-1.000000 I-0.425780 J0.000000 F400.000000
G02 X281.107650 Y686.390810 Z-1.000000 I-0.301072 J0.301072
G02 X280.802447 Y686.516880 Z-1.000000 I-0.000000 J0.432468
G02 X280.677960 Y686.816590 Z-1.000000 I0.298541 J0.299710
G02 X280.803818 Y687.120431 Z-1.000000 I0.429690 J0.000000
G02 X281.107650 Y687.246280 Z-1.000000 I0.303832 J-0.303841
G02 X281.407355 Y687.121798 Z-1.000000 I0.000000 J-0.423028
G02 X281.533430 Y686.816590 Z-1.000000 I-0.306393 J-0.305208
G01 X281.533430 Y686.816590 Z-1.000000
G00 Z5.000000

(End cutting path id: path2940)


(Start cutting path id: path2940)
(Change tool to Cone cutter)

G00 Z5.000000
G00 X281.533430 Y686.816590

G01 Z-1.000000 F100.0(Penetrate)
G02 X281.408722 Y686.515518 Z-1.000000 I-0.425780 J0.000000 F400.000000
G02 X281.107650 Y686.390810 Z-1.000000 I-0.301072 J0.301072
G02 X280.802447 Y686.516880 Z-1.000000 I-0.000000 J0.432468
G02 X280.677960 Y686.816590 Z-1.000000 I0.298541 J0.299710
G02 X280.803818 Y687.120431 Z-1.000000 I0.429690 J0.000000
G02 X281.107650 Y687.246280 Z-1.000000 I0.303832 J-0.303841
G02 X281.407355 Y687.121798 Z-1.000000 I0.000000 J-0.423028
G02 X281.533430 Y686.816590 Z-1.000000 I-0.306393 J-0.305208
G01 X281.533430 Y686.816590 Z-1.000000
G00 Z5.000000

(End cutting path id: path2940)


(Start cutting path id: path2940)
(Change tool to Cone cutter)

G00 Z5.000000
G00 X281.533430 Y686.816590

G00 Z5.000000

(End cutting path id: path2940)


(Start cutting path id: path2940)
(Change tool to Cone cutter)

G00 Z5.000000
G00 X281.533430 Y686.816590

G00 Z5.000000

(End cutting path id: path2940)


(Start cutting path id: path2866)
(Change tool to Cone cutter)

G00 Z5.000000
G00 X280.349840 Y695.816590

G01 Z-1.000000 F100.0(Penetrate)
G02 X279.516520 Y693.808115 Z-1.000000 I-2.837083 J0.000000 F400.000000
G02 X277.506090 Y692.976750 Z-1.000000 I-2.010430 J2.015158
G02 X275.495655 Y693.808119 Z-1.000000 I0.000000 J2.846523
G02 X274.662340 Y695.816590 Z-1.000000 I2.003768 J2.008471
G02 X275.495255 Y697.827425 Z-1.000000 I2.843750 J0.000000
G02 X277.506090 Y698.660340 Z-1.000000 I2.010835 J-2.010835
G02 X279.516920 Y697.827429 Z-1.000000 I0.000000 J-2.843750
G02 X280.349840 Y695.816590 Z-1.000000 I-2.010830 J-2.010839
G01 X280.349840 Y695.816590 Z-1.000000
G00 Z5.000000

(End cutting path id: path2866)


(Start cutting path id: path2866)
(Change tool to Cone cutter)

G00 Z5.000000
G00 X280.349840 Y695.816590

G01 Z-1.000000 F100.0(Penetrate)
G02 X279.516520 Y693.808115 Z-1.000000 I-2.837083 J0.000000 F400.000000
G02 X277.506090 Y692.976750 Z-1.000000 I-2.010430 J2.015158
G02 X275.495655 Y693.808119 Z-1.000000 I0.000000 J2.846523
G02 X274.662340 Y695.816590 Z-1.000000 I2.003768 J2.008471
G02 X275.495255 Y697.827425 Z-1.000000 I2.843750 J0.000000
G02 X277.506090 Y698.660340 Z-1.000000 I2.010835 J-2.010835
G02 X279.516920 Y697.827429 Z-1.000000 I0.000000 J-2.843750
G02 X280.349840 Y695.816590 Z-1.000000 I-2.010830 J-2.010839
G01 X280.349840 Y695.816590 Z-1.000000
G00 Z5.000000

(End cutting path id: path2866)


(Start cutting path id: path2866)
(Change tool to Cone cutter)

G00 Z5.000000
G00 X280.349840 Y695.816590

G00 Z5.000000

(End cutting path id: path2866)


(Start cutting path id: path2866)
(Change tool to Cone cutter)

G00 Z5.000000
G00 X280.349840 Y695.816590

G00 Z5.000000

(End cutting path id: path2866)


(Start cutting path id: path2944)
(Change tool to Cone cutter)

G00 Z5.000000
G00 X277.935770 Y695.816590

G01 Z-1.000000 F100.0(Penetrate)
G02 X277.811287 Y695.516881 Z-1.000000 I-0.423035 J-0.000000 F400.000000
G02 X277.506090 Y695.390810 Z-1.000000 I-0.305197 J0.306379
G02 X277.205014 Y695.515523 Z-1.000000 I0.000000 J0.425780
G02 X277.080310 Y695.816590 Z-1.000000 I0.301076 J0.301067
G02 X277.206380 Y696.121793 Z-1.000000 I0.432468 J0.000000
G02 X277.506090 Y696.246280 Z-1.000000 I0.299710 J-0.298541
G02 X277.809916 Y696.120430 Z-1.000000 I0.000000 J-0.429673
G02 X277.935770 Y695.816590 Z-1.000000 I-0.303843 J-0.303840
G01 X277.935770 Y695.816590 Z-1.000000
G00 Z5.000000

(End cutting path id: path2944)


(Start cutting path id: path2944)
(Change tool to Cone cutter)

G00 Z5.000000
G00 X277.935770 Y695.816590

G01 Z-1.000000 F100.0(Penetrate)
G02 X277.811287 Y695.516881 Z-1.000000 I-0.423035 J-0.000000 F400.000000
G02 X277.506090 Y695.390810 Z-1.000000 I-0.305197 J0.306379
G02 X277.205014 Y695.515523 Z-1.000000 I0.000000 J0.425780
G02 X277.080310 Y695.816590 Z-1.000000 I0.301076 J0.301067
G02 X277.206380 Y696.121793 Z-1.000000 I0.432468 J0.000000
G02 X277.506090 Y696.246280 Z-1.000000 I0.299710 J-0.298541
G02 X277.809916 Y696.120430 Z-1.000000 I0.000000 J-0.429673
G02 X277.935770 Y695.816590 Z-1.000000 I-0.303843 J-0.303840
G01 X277.935770 Y695.816590 Z-1.000000
G00 Z5.000000

(End cutting path id: path2944)


(Start cutting path id: path2944)
(Change tool to Cone cutter)

G00 Z5.000000
G00 X277.935770 Y695.816590

G00 Z5.000000

(End cutting path id: path2944)


(Start cutting path id: path2944)
(Change tool to Cone cutter)

G00 Z5.000000
G00 X277.935770 Y695.816590

G00 Z5.000000

(End cutting path id: path2944)


(Start cutting path id: path2864)
(Change tool to Cone cutter)

G00 Z5.000000
G00 X274.955310 Y704.066590

G01 Z-1.000000 F100.0(Penetrate)
G01 X280.056870 Y704.066590 Z-1.000000 F400.000000
G01 X280.056870 Y709.168160 Z-1.000000
G01 X274.955310 Y709.168160 Z-1.000000
G01 X274.955310 Y704.066590 Z-1.000000
G00 Z5.000000

(End cutting path id: path2864)


(Start cutting path id: path2864)
(Change tool to Cone cutter)

G00 Z5.000000
G00 X274.955310 Y704.066590

G01 Z-1.000000 F100.0(Penetrate)
G01 X280.056870 Y704.066590 Z-1.000000 F400.000000
G01 X280.056870 Y709.168160 Z-1.000000
G01 X274.955310 Y709.168160 Z-1.000000
G01 X274.955310 Y704.066590 Z-1.000000
G00 Z5.000000

(End cutting path id: path2864)


(Start cutting path id: path2864)
(Change tool to Cone cutter)

G00 Z5.000000
G00 X274.955310 Y704.066590

G00 Z5.000000

(End cutting path id: path2864)


(Start cutting path id: path2864)
(Change tool to Cone cutter)

G00 Z5.000000
G00 X274.955310 Y704.066590

G00 Z5.000000

(End cutting path id: path2864)


(Start cutting path id: path2780)
(Change tool to Cone cutter)

G00 Z5.000000
G00 X275.705305 Y706.617370

G01 Z-1.000000 F100.0(Penetrate)
G01 X266.705305 Y697.617370 Z-1.000000 F400.000000
G00 Z5.000000

(End cutting path id: path2780)


(Start cutting path id: path2780)
(Change tool to Cone cutter)

G00 Z5.000000
G00 X275.705305 Y706.617370

G01 Z-1.000000 F100.0(Penetrate)
G01 X266.705305 Y697.617370 Z-1.000000 F400.000000
G00 Z5.000000

(End cutting path id: path2780)


(Start cutting path id: path2790)
(Change tool to Cone cutter)

G00 Z5.000000
G00 X266.705305 Y697.617370

G01 Z-1.000000 F100.0(Penetrate)
G01 X266.705305 Y686.816590 Z-1.000000 F400.000000
G00 Z5.000000

(End cutting path id: path2790)


(Start cutting path id: path2790)
(Change tool to Cone cutter)

G00 Z5.000000
G00 X266.705305 Y697.617370

G01 Z-1.000000 F100.0(Penetrate)
G01 X266.705305 Y686.816590 Z-1.000000 F400.000000
G00 Z5.000000

(End cutting path id: path2790)


(Start cutting path id: path2794)
(Change tool to Cone cutter)

G00 Z5.000000
G00 X263.107645 Y703.019725

G01 Z-1.000000 F100.0(Penetrate)
G01 X252.306865 Y692.218945 Z-1.000000 F400.000000
G00 Z5.000000

(End cutting path id: path2794)


(Start cutting path id: path2794)
(Change tool to Cone cutter)

G00 Z5.000000
G00 X263.107645 Y703.019725

G01 Z-1.000000 F100.0(Penetrate)
G01 X252.306865 Y692.218945 Z-1.000000 F400.000000
G00 Z5.000000

(End cutting path id: path2794)


(Start cutting path id: path2786)
(Change tool to Cone cutter)

G00 Z5.000000
G00 X263.107645 Y706.617370

G01 Z-1.000000 F100.0(Penetrate)
G01 X263.107645 Y703.019725 Z-1.000000 F400.000000
G00 Z5.000000

(End cutting path id: path2786)


(Start cutting path id: path2786)
(Change tool to Cone cutter)

G00 Z5.000000
G00 X263.107645 Y706.617370

G01 Z-1.000000 F100.0(Penetrate)
G01 X263.107645 Y703.019725 Z-1.000000 F400.000000
G00 Z5.000000

(End cutting path id: path2786)


(Start cutting path id: path2782)
(Change tool to Cone cutter)

G00 Z5.000000
G00 X263.107645 Y713.816590

G01 Z-1.000000 F100.0(Penetrate)
G01 X284.705305 Y713.816590 Z-1.000000 F400.000000
G00 Z5.000000

(End cutting path id: path2782)


(Start cutting path id: path2782)
(Change tool to Cone cutter)

G00 Z5.000000
G00 X263.107645 Y713.816590

G01 Z-1.000000 F100.0(Penetrate)
G01 X284.705305 Y713.816590 Z-1.000000 F400.000000
G00 Z5.000000

(End cutting path id: path2782)


(Start cutting path id: path2784)
(Change tool to Cone cutter)

G00 Z5.000000
G00 X284.705305 Y713.816590

G01 Z-1.000000 F100.0(Penetrate)
G01 X288.306865 Y710.218945 Z-1.000000 F400.000000
G00 Z5.000000

(End cutting path id: path2784)


(Start cutting path id: path2784)
(Change tool to Cone cutter)

G00 Z5.000000
G00 X284.705305 Y713.816590

G01 Z-1.000000 F100.0(Penetrate)
G01 X288.306865 Y710.218945 Z-1.000000 F400.000000
G00 Z5.000000

(End cutting path id: path2784)


(Start cutting path id: path2744)
(Change tool to Cone cutter)

G00 Z5.000000
G00 X288.306865 Y710.218945

G01 Z-1.000000 F100.0(Penetrate)
G01 X288.306865 Y694.019725 Z-1.000000 F400.000000
G00 Z5.000000

(End cutting path id: path2744)


(Start cutting path id: path2744)
(Change tool to Cone cutter)

G00 Z5.000000
G00 X288.306865 Y710.218945

G01 Z-1.000000 F100.0(Penetrate)
G01 X288.306865 Y694.019725 Z-1.000000 F400.000000
G00 Z5.000000

(End cutting path id: path2744)


(Start cutting path id: path2742)
(Change tool to Cone cutter)

G00 Z5.000000
G00 X288.306865 Y694.019725

G01 Z-1.000000 F100.0(Penetrate)
G01 X281.107645 Y686.816590 Z-1.000000 F400.000000
G00 Z5.000000

(End cutting path id: path2742)


(Start cutting path id: path2742)
(Change tool to Cone cutter)

G00 Z5.000000
G00 X288.306865 Y694.019725

G01 Z-1.000000 F100.0(Penetrate)
G01 X281.107645 Y686.816590 Z-1.000000 F400.000000
G00 Z5.000000

(End cutting path id: path2742)


(Start cutting path id: path2942)
(Change tool to Cone cutter)

G00 Z5.000000
G00 X277.935770 Y706.617380

G01 Z-1.000000 F100.0(Penetrate)
G02 X277.811284 Y706.317661 Z-1.000000 I-0.423052 J0.000000 F400.000000
G02 X277.506090 Y706.191590 Z-1.000000 I-0.305194 J0.306373
G02 X277.205017 Y706.316302 Z-1.000000 I-0.000000 J0.425773
G02 X277.080310 Y706.617380 Z-1.000000 I0.301090 J0.301078
G02 X277.206377 Y706.922573 Z-1.000000 I0.432451 J0.000000
G02 X277.506090 Y707.047060 Z-1.000000 I0.299713 J-0.298548
G02 X277.809920 Y706.921210 Z-1.000000 I-0.000000 J-0.429680
G02 X277.935770 Y706.617380 Z-1.000000 I-0.303830 J-0.303830
G01 X277.935770 Y706.617380 Z-1.000000
G00 Z5.000000

(End cutting path id: path2942)


(Start cutting path id: path2942)
(Change tool to Cone cutter)

G00 Z5.000000
G00 X277.935770 Y706.617380

G01 Z-1.000000 F100.0(Penetrate)
G02 X277.811284 Y706.317661 Z-1.000000 I-0.423052 J0.000000 F400.000000
G02 X277.506090 Y706.191590 Z-1.000000 I-0.305194 J0.306373
G02 X277.205017 Y706.316302 Z-1.000000 I-0.000000 J0.425773
G02 X277.080310 Y706.617380 Z-1.000000 I0.301090 J0.301078
G02 X277.206377 Y706.922573 Z-1.000000 I0.432451 J0.000000
G02 X277.506090 Y707.047060 Z-1.000000 I0.299713 J-0.298548
G02 X277.809920 Y706.921210 Z-1.000000 I-0.000000 J-0.429680
G02 X277.935770 Y706.617380 Z-1.000000 I-0.303830 J-0.303830
G01 X277.935770 Y706.617380 Z-1.000000
G00 Z5.000000

(End cutting path id: path2942)


(Start cutting path id: path2942)
(Change tool to Cone cutter)

G00 Z5.000000
G00 X277.935770 Y706.617380

G00 Z5.000000

(End cutting path id: path2942)


(Start cutting path id: path2942)
(Change tool to Cone cutter)

G00 Z5.000000
G00 X277.935770 Y706.617380

G00 Z5.000000

(End cutting path id: path2942)


(Start cutting path id: path2740)
(Change tool to Cone cutter)

G00 Z5.000000
G00 X277.506085 Y706.617370

G01 Z-1.000000 F100.0(Penetrate)
G01 X275.705305 Y706.617370 Z-1.000000 F400.000000
G00 Z5.000000

(End cutting path id: path2740)


(Start cutting path id: path2740)
(Change tool to Cone cutter)

G00 Z5.000000
G00 X277.506085 Y706.617370

G01 Z-1.000000 F100.0(Penetrate)
G01 X275.705305 Y706.617370 Z-1.000000 F400.000000
G00 Z5.000000

(End cutting path id: path2740)


(Start cutting path id: path2738)
(Change tool to Cone cutter)

G00 Z5.000000
G00 X277.506085 Y706.617370

G01 Z-1.000000 F100.0(Penetrate)
G01 X277.506085 Y695.816590 Z-1.000000 F400.000000
G00 Z5.000000

(End cutting path id: path2738)


(Start cutting path id: path2738)
(Change tool to Cone cutter)

G00 Z5.000000
G00 X277.506085 Y706.617370

G01 Z-1.000000 F100.0(Penetrate)
G01 X277.506085 Y695.816590 Z-1.000000 F400.000000
G00 Z5.000000

(End cutting path id: path2738)


(Start cutting path id: path2950)
(Change tool to Cone cutter)

G00 Z5.000000
G00 X263.533430 Y713.816590

G01 Z-1.000000 F100.0(Penetrate)
G02 X263.408722 Y713.515518 Z-1.000000 I-0.425780 J0.000000 F400.000000
G02 X263.107650 Y713.390810 Z-1.000000 I-0.301072 J0.301072
G02 X262.802447 Y713.516880 Z-1.000000 I-0.000000 J0.432468
G02 X262.677960 Y713.816590 Z-1.000000 I0.298541 J0.299710
G02 X262.803818 Y714.120431 Z-1.000000 I0.429690 J0.000000
G02 X263.107650 Y714.246280 Z-1.000000 I0.303832 J-0.303841
G02 X263.407355 Y714.121798 Z-1.000000 I0.000000 J-0.423028
G02 X263.533430 Y713.816590 Z-1.000000 I-0.306393 J-0.305208
G01 X263.533430 Y713.816590 Z-1.000000
G00 Z5.000000

(End cutting path id: path2950)


(Start cutting path id: path2950)
(Change tool to Cone cutter)

G00 Z5.000000
G00 X263.533430 Y713.816590

G01 Z-1.000000 F100.0(Penetrate)
G02 X263.408722 Y713.515518 Z-1.000000 I-0.425780 J0.000000 F400.000000
G02 X263.107650 Y713.390810 Z-1.000000 I-0.301072 J0.301072
G02 X262.802447 Y713.516880 Z-1.000000 I-0.000000 J0.432468
G02 X262.677960 Y713.816590 Z-1.000000 I0.298541 J0.299710
G02 X262.803818 Y714.120431 Z-1.000000 I0.429690 J0.000000
G02 X263.107650 Y714.246280 Z-1.000000 I0.303832 J-0.303841
G02 X263.407355 Y714.121798 Z-1.000000 I0.000000 J-0.423028
G02 X263.533430 Y713.816590 Z-1.000000 I-0.306393 J-0.305208
G01 X263.533430 Y713.816590 Z-1.000000
G00 Z5.000000

(End cutting path id: path2950)


(Start cutting path id: path2950)
(Change tool to Cone cutter)

G00 Z5.000000
G00 X263.533430 Y713.816590

G00 Z5.000000

(End cutting path id: path2950)


(Start cutting path id: path2950)
(Change tool to Cone cutter)

G00 Z5.000000
G00 X263.533430 Y713.816590

G00 Z5.000000

(End cutting path id: path2950)


(Start cutting path id: path2876)
(Change tool to Cone cutter)

G00 Z5.000000
G00 X263.107650 Y713.816590

G01 Z-1.000000 F100.0(Penetrate)
G01 X260.697490 Y713.816590 Z-1.000000 F400.000000
G02 X261.403414 Y715.520835 Z-1.000000 I2.410160 J0.000000
G02 X263.107650 Y716.226750 Z-1.000000 I1.704236 J-1.704245
G02 X264.807757 Y715.522200 Z-1.000000 I-0.000000 J-2.403488
G02 X265.513900 Y713.816590 Z-1.000000 I-1.706784 J-1.705610
G01 X263.107650 Y713.816590 Z-1.000000
G00 Z5.000000

(End cutting path id: path2876)


(Start cutting path id: path2876)
(Change tool to Cone cutter)

G00 Z5.000000
G00 X263.107650 Y713.816590

G01 Z-1.000000 F100.0(Penetrate)
G01 X260.697490 Y713.816590 Z-1.000000 F400.000000
G02 X261.403414 Y715.520835 Z-1.000000 I2.410160 J0.000000
G02 X263.107650 Y716.226750 Z-1.000000 I1.704236 J-1.704245
G02 X264.807757 Y715.522200 Z-1.000000 I-0.000000 J-2.403488
G02 X265.513900 Y713.816590 Z-1.000000 I-1.706784 J-1.705610
G01 X263.107650 Y713.816590 Z-1.000000
G00 Z5.000000

(End cutting path id: path2876)


(Start cutting path id: path2876)
(Change tool to Cone cutter)

G00 Z5.000000
G00 X263.107650 Y713.816590

G00 Z5.000000

(End cutting path id: path2876)


(Start cutting path id: path2876)
(Change tool to Cone cutter)

G00 Z5.000000
G00 X263.107650 Y713.816590

G00 Z5.000000

(End cutting path id: path2876)


(Start cutting path id: path2874)
(Change tool to Cone cutter)

G00 Z5.000000
G00 X263.107650 Y713.816590

G01 Z-1.000000 F100.0(Penetrate)
G01 X265.513900 Y713.816590 Z-1.000000 F400.000000
G02 X264.809126 Y712.115114 Z-1.000000 I-2.406250 J0.000000
G02 X263.107650 Y711.410340 Z-1.000000 I-1.701476 J1.701476
G02 X261.402044 Y712.116479 Z-1.000000 I0.000000 J2.412927
G02 X260.697490 Y713.816590 Z-1.000000 I1.698933 J1.700111
G01 X263.107650 Y713.816590 Z-1.000000
G00 Z5.000000

(End cutting path id: path2874)


(Start cutting path id: path2874)
(Change tool to Cone cutter)

G00 Z5.000000
G00 X263.107650 Y713.816590

G01 Z-1.000000 F100.0(Penetrate)
G01 X265.513900 Y713.816590 Z-1.000000 F400.000000
G02 X264.809126 Y712.115114 Z-1.000000 I-2.406250 J0.000000
G02 X263.107650 Y711.410340 Z-1.000000 I-1.701476 J1.701476
G02 X261.402044 Y712.116479 Z-1.000000 I0.000000 J2.412927
G02 X260.697490 Y713.816590 Z-1.000000 I1.698933 J1.700111
G01 X263.107650 Y713.816590 Z-1.000000
G00 Z5.000000

(End cutting path id: path2874)


(Start cutting path id: path2874)
(Change tool to Cone cutter)

G00 Z5.000000
G00 X263.107650 Y713.816590

G00 Z5.000000

(End cutting path id: path2874)


(Start cutting path id: path2874)
(Change tool to Cone cutter)

G00 Z5.000000
G00 X263.107650 Y713.816590

G00 Z5.000000

(End cutting path id: path2874)


(Start cutting path id: path2754)
(Change tool to Cone cutter)

G00 Z5.000000
G00 X302.705305 Y703.019725

G01 Z-1.000000 F100.0(Penetrate)
G01 X302.705305 Y688.617370 Z-1.000000 F400.000000
G00 Z5.000000

(End cutting path id: path2754)


(Start cutting path id: path2754)
(Change tool to Cone cutter)

G00 Z5.000000
G00 X302.705305 Y703.019725

G01 Z-1.000000 F100.0(Penetrate)
G01 X302.705305 Y688.617370 Z-1.000000 F400.000000
G00 Z5.000000

(End cutting path id: path2754)


(Start cutting path id: path2752)
(Change tool to Cone cutter)

G00 Z5.000000
G00 X302.705305 Y688.617370

G01 Z-1.000000 F100.0(Penetrate)
G01 X313.506085 Y677.816590 Z-1.000000 F400.000000
G00 Z5.000000

(End cutting path id: path2752)


(Start cutting path id: path2752)
(Change tool to Cone cutter)

G00 Z5.000000
G00 X302.705305 Y688.617370

G01 Z-1.000000 F100.0(Penetrate)
G01 X313.506085 Y677.816590 Z-1.000000 F400.000000
G00 Z5.000000

(End cutting path id: path2752)


(Start cutting path id: path2960)
(Change tool to Cone cutter)

G00 Z5.000000
G00 X313.935770 Y677.816590

G01 Z-1.000000 F100.0(Penetrate)
G02 X313.811287 Y677.516881 Z-1.000000 I-0.423035 J-0.000000 F400.000000
G02 X313.506090 Y677.390810 Z-1.000000 I-0.305197 J0.306379
G02 X313.205014 Y677.515523 Z-1.000000 I0.000000 J0.425780
G02 X313.080310 Y677.816590 Z-1.000000 I0.301076 J0.301067
G02 X313.206380 Y678.121793 Z-1.000000 I0.432468 J0.000000
G02 X313.506090 Y678.246280 Z-1.000000 I0.299710 J-0.298541
G02 X313.809916 Y678.120430 Z-1.000000 I0.000000 J-0.429673
G02 X313.935770 Y677.816590 Z-1.000000 I-0.303843 J-0.303840
G01 X313.935770 Y677.816590 Z-1.000000
G00 Z5.000000

(End cutting path id: path2960)


(Start cutting path id: path2960)
(Change tool to Cone cutter)

G00 Z5.000000
G00 X313.935770 Y677.816590

G01 Z-1.000000 F100.0(Penetrate)
G02 X313.811287 Y677.516881 Z-1.000000 I-0.423035 J-0.000000 F400.000000
G02 X313.506090 Y677.390810 Z-1.000000 I-0.305197 J0.306379
G02 X313.205014 Y677.515523 Z-1.000000 I0.000000 J0.425780
G02 X313.080310 Y677.816590 Z-1.000000 I0.301076 J0.301067
G02 X313.206380 Y678.121793 Z-1.000000 I0.432468 J0.000000
G02 X313.506090 Y678.246280 Z-1.000000 I0.299710 J-0.298541
G02 X313.809916 Y678.120430 Z-1.000000 I0.000000 J-0.429673
G02 X313.935770 Y677.816590 Z-1.000000 I-0.303843 J-0.303840
G01 X313.935770 Y677.816590 Z-1.000000
G00 Z5.000000

(End cutting path id: path2960)


(Start cutting path id: path2960)
(Change tool to Cone cutter)

G00 Z5.000000
G00 X313.935770 Y677.816590

G00 Z5.000000

(End cutting path id: path2960)


(Start cutting path id: path2960)
(Change tool to Cone cutter)

G00 Z5.000000
G00 X313.935770 Y677.816590

G00 Z5.000000

(End cutting path id: path2960)


(Start cutting path id: path2888)
(Change tool to Cone cutter)

G00 Z5.000000
G00 X316.349840 Y677.816590

G01 Z-1.000000 F100.0(Penetrate)
G02 X315.516520 Y675.808115 Z-1.000000 I-2.837083 J0.000000 F400.000000
G02 X313.506090 Y674.976750 Z-1.000000 I-2.010430 J2.015158
G02 X311.495655 Y675.808119 Z-1.000000 I0.000000 J2.846523
G02 X310.662340 Y677.816590 Z-1.000000 I2.003768 J2.008471
G02 X311.495255 Y679.827425 Z-1.000000 I2.843750 J0.000000
G02 X313.506090 Y680.660340 Z-1.000000 I2.010835 J-2.010835
G02 X315.516920 Y679.827429 Z-1.000000 I0.000000 J-2.843750
G02 X316.349840 Y677.816590 Z-1.000000 I-2.010830 J-2.010839
G01 X316.349840 Y677.816590 Z-1.000000
G00 Z5.000000

(End cutting path id: path2888)


(Start cutting path id: path2888)
(Change tool to Cone cutter)

G00 Z5.000000
G00 X316.349840 Y677.816590

G01 Z-1.000000 F100.0(Penetrate)
G02 X315.516520 Y675.808115 Z-1.000000 I-2.837083 J0.000000 F400.000000
G02 X313.506090 Y674.976750 Z-1.000000 I-2.010430 J2.015158
G02 X311.495655 Y675.808119 Z-1.000000 I0.000000 J2.846523
G02 X310.662340 Y677.816590 Z-1.000000 I2.003768 J2.008471
G02 X311.495255 Y679.827425 Z-1.000000 I2.843750 J0.000000
G02 X313.506090 Y680.660340 Z-1.000000 I2.010835 J-2.010835
G02 X315.516920 Y679.827429 Z-1.000000 I0.000000 J-2.843750
G02 X316.349840 Y677.816590 Z-1.000000 I-2.010830 J-2.010839
G01 X316.349840 Y677.816590 Z-1.000000
G00 Z5.000000

(End cutting path id: path2888)


(Start cutting path id: path2888)
(Change tool to Cone cutter)

G00 Z5.000000
G00 X316.349840 Y677.816590

G00 Z5.000000

(End cutting path id: path2888)


(Start cutting path id: path2888)
(Change tool to Cone cutter)

G00 Z5.000000
G00 X316.349840 Y677.816590

G00 Z5.000000

(End cutting path id: path2888)


(Start cutting path id: path2760)
(Change tool to Cone cutter)

G00 Z5.000000
G00 X320.705305 Y672.418150

G01 Z-1.000000 F100.0(Penetrate)
G01 X320.705305 Y688.617370 Z-1.000000 F400.000000
G00 Z5.000000

(End cutting path id: path2760)


(Start cutting path id: path2760)
(Change tool to Cone cutter)

G00 Z5.000000
G00 X320.705305 Y672.418150

G01 Z-1.000000 F100.0(Penetrate)
G01 X320.705305 Y688.617370 Z-1.000000 F400.000000
G00 Z5.000000

(End cutting path id: path2760)


(Start cutting path id: path2756)
(Change tool to Cone cutter)

G00 Z5.000000
G00 X320.705305 Y688.617370

G01 Z-1.000000 F100.0(Penetrate)
G01 X313.506085 Y695.816590 Z-1.000000 F400.000000
G00 Z5.000000

(End cutting path id: path2756)


(Start cutting path id: path2756)
(Change tool to Cone cutter)

G00 Z5.000000
G00 X320.705305 Y688.617370

G01 Z-1.000000 F100.0(Penetrate)
G01 X313.506085 Y695.816590 Z-1.000000 F400.000000
G00 Z5.000000

(End cutting path id: path2756)


(Start cutting path id: path2964)
(Change tool to Cone cutter)

G00 Z5.000000
G00 X313.935770 Y695.816590

G01 Z-1.000000 F100.0(Penetrate)
G02 X313.811287 Y695.516881 Z-1.000000 I-0.423035 J-0.000000 F400.000000
G02 X313.506090 Y695.390810 Z-1.000000 I-0.305197 J0.306379
G02 X313.205014 Y695.515523 Z-1.000000 I0.000000 J0.425780
G02 X313.080310 Y695.816590 Z-1.000000 I0.301076 J0.301067
G02 X313.206380 Y696.121793 Z-1.000000 I0.432468 J0.000000
G02 X313.506090 Y696.246280 Z-1.000000 I0.299710 J-0.298541
G02 X313.809916 Y696.120430 Z-1.000000 I0.000000 J-0.429673
G02 X313.935770 Y695.816590 Z-1.000000 I-0.303843 J-0.303840
G01 X313.935770 Y695.816590 Z-1.000000
G00 Z5.000000

(End cutting path id: path2964)


(Start cutting path id: path2964)
(Change tool to Cone cutter)

G00 Z5.000000
G00 X313.935770 Y695.816590

G01 Z-1.000000 F100.0(Penetrate)
G02 X313.811287 Y695.516881 Z-1.000000 I-0.423035 J-0.000000 F400.000000
G02 X313.506090 Y695.390810 Z-1.000000 I-0.305197 J0.306379
G02 X313.205014 Y695.515523 Z-1.000000 I0.000000 J0.425780
G02 X313.080310 Y695.816590 Z-1.000000 I0.301076 J0.301067
G02 X313.206380 Y696.121793 Z-1.000000 I0.432468 J0.000000
G02 X313.506090 Y696.246280 Z-1.000000 I0.299710 J-0.298541
G02 X313.809916 Y696.120430 Z-1.000000 I0.000000 J-0.429673
G02 X313.935770 Y695.816590 Z-1.000000 I-0.303843 J-0.303840
G01 X313.935770 Y695.816590 Z-1.000000
G00 Z5.000000

(End cutting path id: path2964)


(Start cutting path id: path2964)
(Change tool to Cone cutter)

G00 Z5.000000
G00 X313.935770 Y695.816590

G00 Z5.000000

(End cutting path id: path2964)


(Start cutting path id: path2964)
(Change tool to Cone cutter)

G00 Z5.000000
G00 X313.935770 Y695.816590

G00 Z5.000000

(End cutting path id: path2964)


(Start cutting path id: path2892)
(Change tool to Cone cutter)

G00 Z5.000000
G00 X316.056870 Y698.367380

G01 Z-1.000000 F100.0(Penetrate)
G01 X310.955310 Y698.367380 Z-1.000000 F400.000000
G01 X310.955310 Y693.269720 Z-1.000000
G01 X316.056870 Y693.269720 Z-1.000000
G01 X316.056870 Y698.367380 Z-1.000000
G00 Z5.000000

(End cutting path id: path2892)


(Start cutting path id: path2892)
(Change tool to Cone cutter)

G00 Z5.000000
G00 X316.056870 Y698.367380

G01 Z-1.000000 F100.0(Penetrate)
G01 X310.955310 Y698.367380 Z-1.000000 F400.000000
G01 X310.955310 Y693.269720 Z-1.000000
G01 X316.056870 Y693.269720 Z-1.000000
G01 X316.056870 Y698.367380 Z-1.000000
G00 Z5.000000

(End cutting path id: path2892)


(Start cutting path id: path2892)
(Change tool to Cone cutter)

G00 Z5.000000
G00 X316.056870 Y698.367380

G00 Z5.000000

(End cutting path id: path2892)


(Start cutting path id: path2892)
(Change tool to Cone cutter)

G00 Z5.000000
G00 X316.056870 Y698.367380

G00 Z5.000000

(End cutting path id: path2892)


(Start cutting path id: path2890)
(Change tool to Cone cutter)

G00 Z5.000000
G00 X316.349840 Y706.617380

G01 Z-1.000000 F100.0(Penetrate)
G02 X315.516920 Y704.606541 Z-1.000000 I-2.843750 J-0.000000 F400.000000
G02 X313.506090 Y703.773630 Z-1.000000 I-2.010830 J2.010839
G02 X311.495255 Y704.606545 Z-1.000000 I-0.000000 J2.843750
G02 X310.662340 Y706.617380 Z-1.000000 I2.010835 J2.010835
G02 X311.495251 Y708.628210 Z-1.000000 I2.843750 J-0.000000
G02 X313.506090 Y709.461130 Z-1.000000 I2.010839 J-2.010830
G02 X315.516925 Y708.628215 Z-1.000000 I0.000000 J-2.843750
G02 X316.349840 Y706.617380 Z-1.000000 I-2.010835 J-2.010835
G01 X316.349840 Y706.617380 Z-1.000000
G00 Z5.000000

(End cutting path id: path2890)


(Start cutting path id: path2890)
(Change tool to Cone cutter)

G00 Z5.000000
G00 X316.349840 Y706.617380

G01 Z-1.000000 F100.0(Penetrate)
G02 X315.516920 Y704.606541 Z-1.000000 I-2.843750 J-0.000000 F400.000000
G02 X313.506090 Y703.773630 Z-1.000000 I-2.010830 J2.010839
G02 X311.495255 Y704.606545 Z-1.000000 I-0.000000 J2.843750
G02 X310.662340 Y706.617380 Z-1.000000 I2.010835 J2.010835
G02 X311.495251 Y708.628210 Z-1.000000 I2.843750 J-0.000000
G02 X313.506090 Y709.461130 Z-1.000000 I2.010839 J-2.010830
G02 X315.516925 Y708.628215 Z-1.000000 I0.000000 J-2.843750
G02 X316.349840 Y706.617380 Z-1.000000 I-2.010835 J-2.010835
G01 X316.349840 Y706.617380 Z-1.000000
G00 Z5.000000

(End cutting path id: path2890)


(Start cutting path id: path2890)
(Change tool to Cone cutter)

G00 Z5.000000
G00 X316.349840 Y706.617380

G00 Z5.000000

(End cutting path id: path2890)


(Start cutting path id: path2890)
(Change tool to Cone cutter)

G00 Z5.000000
G00 X316.349840 Y706.617380

G00 Z5.000000

(End cutting path id: path2890)


(Start cutting path id: path2962)
(Change tool to Cone cutter)

G00 Z5.000000
G00 X313.935770 Y706.617380

G01 Z-1.000000 F100.0(Penetrate)
G02 X313.811284 Y706.317661 Z-1.000000 I-0.423052 J0.000000 F400.000000
G02 X313.506090 Y706.191590 Z-1.000000 I-0.305194 J0.306373
G02 X313.205017 Y706.316302 Z-1.000000 I-0.000000 J0.425773
G02 X313.080310 Y706.617380 Z-1.000000 I0.301090 J0.301078
G02 X313.206377 Y706.922573 Z-1.000000 I0.432451 J0.000000
G02 X313.506090 Y707.047060 Z-1.000000 I0.299713 J-0.298548
G02 X313.809920 Y706.921210 Z-1.000000 I-0.000000 J-0.429680
G02 X313.935770 Y706.617380 Z-1.000000 I-0.303830 J-0.303830
G01 X313.935770 Y706.617380 Z-1.000000
G00 Z5.000000

(End cutting path id: path2962)


(Start cutting path id: path2962)
(Change tool to Cone cutter)

G00 Z5.000000
G00 X313.935770 Y706.617380

G01 Z-1.000000 F100.0(Penetrate)
G02 X313.811284 Y706.317661 Z-1.000000 I-0.423052 J0.000000 F400.000000
G02 X313.506090 Y706.191590 Z-1.000000 I-0.305194 J0.306373
G02 X313.205017 Y706.316302 Z-1.000000 I-0.000000 J0.425773
G02 X313.080310 Y706.617380 Z-1.000000 I0.301090 J0.301078
G02 X313.206377 Y706.922573 Z-1.000000 I0.432451 J0.000000
G02 X313.506090 Y707.047060 Z-1.000000 I0.299713 J-0.298548
G02 X313.809920 Y706.921210 Z-1.000000 I-0.000000 J-0.429680
G02 X313.935770 Y706.617380 Z-1.000000 I-0.303830 J-0.303830
G01 X313.935770 Y706.617380 Z-1.000000
G00 Z5.000000

(End cutting path id: path2962)


(Start cutting path id: path2962)
(Change tool to Cone cutter)

G00 Z5.000000
G00 X313.935770 Y706.617380

G00 Z5.000000

(End cutting path id: path2962)


(Start cutting path id: path2962)
(Change tool to Cone cutter)

G00 Z5.000000
G00 X313.935770 Y706.617380

G00 Z5.000000

(End cutting path id: path2962)


(Start cutting path id: path2748)
(Change tool to Cone cutter)

G00 Z5.000000
G00 X313.506085 Y706.617370

G01 Z-1.000000 F100.0(Penetrate)
G01 X306.306865 Y706.617370 Z-1.000000 F400.000000
G00 Z5.000000

(End cutting path id: path2748)


(Start cutting path id: path2748)
(Change tool to Cone cutter)

G00 Z5.000000
G00 X313.506085 Y706.617370

G01 Z-1.000000 F100.0(Penetrate)
G01 X306.306865 Y706.617370 Z-1.000000 F400.000000
G00 Z5.000000

(End cutting path id: path2748)


(Start cutting path id: path2750)
(Change tool to Cone cutter)

G00 Z5.000000
G00 X306.306865 Y706.617370

G01 Z-1.000000 F100.0(Penetrate)
G01 X302.705305 Y703.019725 Z-1.000000 F400.000000
G00 Z5.000000

(End cutting path id: path2750)


(Start cutting path id: path2750)
(Change tool to Cone cutter)

G00 Z5.000000
G00 X306.306865 Y706.617370

G01 Z-1.000000 F100.0(Penetrate)
G01 X302.705305 Y703.019725 Z-1.000000 F400.000000
G00 Z5.000000

(End cutting path id: path2750)


(Start cutting path id: path2720)
(Change tool to Cone cutter)

G00 Z5.000000
G00 X324.306865 Y724.617370

G01 Z-1.000000 F100.0(Penetrate)
G01 X203.705305 Y724.617370 Z-1.000000 F400.000000
G00 Z5.000000

(End cutting path id: path2720)


(Start cutting path id: path2720)
(Change tool to Cone cutter)

G00 Z5.000000
G00 X324.306865 Y724.617370

G01 Z-1.000000 F100.0(Penetrate)
G01 X203.705305 Y724.617370 Z-1.000000 F400.000000
G00 Z5.000000

(End cutting path id: path2720)


(Start cutting path id: path2718)
(Change tool to Cone cutter)

G00 Z5.000000
G00 X203.705305 Y724.617370

G01 Z-1.000000 F100.0(Penetrate)
G01 X203.705305 Y641.816590 Z-1.000000 F400.000000
G00 Z5.000000

(End cutting path id: path2718)


(Start cutting path id: path2718)
(Change tool to Cone cutter)

G00 Z5.000000
G00 X203.705305 Y724.617370

G01 Z-1.000000 F100.0(Penetrate)
G01 X203.705305 Y641.816590 Z-1.000000 F400.000000
G00 Z5.000000

(End cutting path id: path2718)


(Start cutting path id: path2716)
(Change tool to Cone cutter)

G00 Z5.000000
G00 X203.705305 Y641.816590

G01 Z-1.000000 F100.0(Penetrate)
G01 X324.306865 Y641.816590 Z-1.000000 F400.000000
G00 Z5.000000

(End cutting path id: path2716)


(Start cutting path id: path2716)
(Change tool to Cone cutter)

G00 Z5.000000
G00 X203.705305 Y641.816590

G01 Z-1.000000 F100.0(Penetrate)
G01 X324.306865 Y641.816590 Z-1.000000 F400.000000
G00 Z5.000000

(End cutting path id: path2716)


(Start cutting path id: path2714)
(Change tool to Cone cutter)

G00 Z5.000000
G00 X324.306865 Y641.816590

G01 Z-1.000000 F100.0(Penetrate)
G01 X324.306865 Y724.617370 Z-1.000000 F400.000000
G00 Z5.000000

(End cutting path id: path2714)


(Start cutting path id: path2714)
(Change tool to Cone cutter)

G00 Z5.000000
G00 X324.306865 Y641.816590

G01 Z-1.000000 F100.0(Penetrate)
G01 X324.306865 Y724.617370 Z-1.000000 F400.000000
G00 Z5.000000

(End cutting path id: path2714)


(Start cutting path id: path2758)
(Change tool to Cone cutter)

G00 Z5.000000
G00 X320.705305 Y670.843945

G01 Z-1.000000 F100.0(Penetrate)
G01 X320.705305 Y672.418150 Z-1.000000 F400.000000
G00 Z5.000000

(End cutting path id: path2758)


(Start cutting path id: path2758)
(Change tool to Cone cutter)

G00 Z5.000000
G00 X320.705305 Y670.843945

G01 Z-1.000000 F100.0(Penetrate)
G01 X320.705305 Y672.418150 Z-1.000000 F400.000000
G00 Z5.000000

(End cutting path id: path2758)


(Start cutting path id: path2886)
(Change tool to Cone cutter)

G00 Z5.000000
G00 X316.349840 Y670.738470

G01 Z-1.000000 F100.0(Penetrate)
G02 X315.516925 Y668.727635 Z-1.000000 I-2.843750 J0.000000 F400.000000
G02 X313.506090 Y667.894720 Z-1.000000 I-2.010835 J2.010835
G02 X311.495251 Y668.727640 Z-1.000000 I-0.000000 J2.843750
G02 X310.662340 Y670.738470 Z-1.000000 I2.010839 J2.010830
G02 X311.495251 Y672.749300 Z-1.000000 I2.843750 J-0.000000
G02 X313.506090 Y673.582220 Z-1.000000 I2.010839 J-2.010830
G02 X315.516925 Y672.749305 Z-1.000000 I0.000000 J-2.843750
G02 X316.349840 Y670.738470 Z-1.000000 I-2.010835 J-2.010835
G01 X316.349840 Y670.738470 Z-1.000000
G00 Z5.000000

(End cutting path id: path2886)


(Start cutting path id: path2886)
(Change tool to Cone cutter)

G00 Z5.000000
G00 X316.349840 Y670.738470

G01 Z-1.000000 F100.0(Penetrate)
G02 X315.516925 Y668.727635 Z-1.000000 I-2.843750 J0.000000 F400.000000
G02 X313.506090 Y667.894720 Z-1.000000 I-2.010835 J2.010835
G02 X311.495251 Y668.727640 Z-1.000000 I-0.000000 J2.843750
G02 X310.662340 Y670.738470 Z-1.000000 I2.010839 J2.010830
G02 X311.495251 Y672.749300 Z-1.000000 I2.843750 J-0.000000
G02 X313.506090 Y673.582220 Z-1.000000 I2.010839 J-2.010830
G02 X315.516925 Y672.749305 Z-1.000000 I0.000000 J-2.843750
G02 X316.349840 Y670.738470 Z-1.000000 I-2.010835 J-2.010835
G01 X316.349840 Y670.738470 Z-1.000000
G00 Z5.000000

(End cutting path id: path2886)


(Start cutting path id: path2886)
(Change tool to Cone cutter)

G00 Z5.000000
G00 X316.349840 Y670.738470

G00 Z5.000000

(End cutting path id: path2886)


(Start cutting path id: path2886)
(Change tool to Cone cutter)

G00 Z5.000000
G00 X316.349840 Y670.738470

G00 Z5.000000

(End cutting path id: path2886)


(Start cutting path id: path2958)
(Change tool to Cone cutter)

G00 Z5.000000
G00 X313.935770 Y670.738470

G01 Z-1.000000 F100.0(Penetrate)
G02 X313.809921 Y670.434634 Z-1.000000 I-0.429697 J-0.000000 F400.000000
G02 X313.506090 Y670.308780 Z-1.000000 I-0.303831 J0.303819
G02 X313.206376 Y670.433271 Z-1.000000 I0.000000 J0.423028
G02 X313.080310 Y670.738470 Z-1.000000 I0.306402 J0.305199
G02 X313.205014 Y671.039537 Z-1.000000 I0.425780 J-0.000000
G02 X313.506090 Y671.164250 Z-1.000000 I0.301076 J-0.301067
G02 X313.811287 Y671.038179 Z-1.000000 I-0.000000 J-0.432451
G02 X313.935770 Y670.738470 Z-1.000000 I-0.298552 J-0.299709
G01 X313.935770 Y670.738470 Z-1.000000
G00 Z5.000000

(End cutting path id: path2958)


(Start cutting path id: path2958)
(Change tool to Cone cutter)

G00 Z5.000000
G00 X313.935770 Y670.738470

G01 Z-1.000000 F100.0(Penetrate)
G02 X313.809921 Y670.434634 Z-1.000000 I-0.429697 J-0.000000 F400.000000
G02 X313.506090 Y670.308780 Z-1.000000 I-0.303831 J0.303819
G02 X313.206376 Y670.433271 Z-1.000000 I0.000000 J0.423028
G02 X313.080310 Y670.738470 Z-1.000000 I0.306402 J0.305199
G02 X313.205014 Y671.039537 Z-1.000000 I0.425780 J-0.000000
G02 X313.506090 Y671.164250 Z-1.000000 I0.301076 J-0.301067
G02 X313.811287 Y671.038179 Z-1.000000 I-0.000000 J-0.432451
G02 X313.935770 Y670.738470 Z-1.000000 I-0.298552 J-0.299709
G01 X313.935770 Y670.738470 Z-1.000000
G00 Z5.000000

(End cutting path id: path2958)


(Start cutting path id: path2958)
(Change tool to Cone cutter)

G00 Z5.000000
G00 X313.935770 Y670.738470

G00 Z5.000000

(End cutting path id: path2958)


(Start cutting path id: path2958)
(Change tool to Cone cutter)

G00 Z5.000000
G00 X313.935770 Y670.738470

G00 Z5.000000

(End cutting path id: path2958)


(Start cutting path id: path2770)
(Change tool to Cone cutter)

G00 Z5.000000
G00 X313.506085 Y670.738465

G01 Z-1.000000 F100.0(Penetrate)
G01 X291.787330 Y670.738465 Z-1.000000 F400.000000
G00 Z5.000000

(End cutting path id: path2770)


(Start cutting path id: path2770)
(Change tool to Cone cutter)

G00 Z5.000000
G00 X313.506085 Y670.738465

G01 Z-1.000000 F100.0(Penetrate)
G01 X291.787330 Y670.738465 Z-1.000000 F400.000000
G00 Z5.000000

(End cutting path id: path2770)


(Start cutting path id: path2838)
(Change tool to Cone cutter)

G00 Z5.000000
G00 X273.904520 Y667.683610

G01 Z-1.000000 F100.0(Penetrate)
G01 X273.904520 Y667.484560 Z-1.000000 F400.000000
G02 X272.545624 Y667.577391 Z-1.000000 I0.000000 J9.992404
G02 X272.452990 Y667.683610 Z-1.000000 I0.014580 J0.106219
G02 X272.545868 Y667.790119 Z-1.000000 I0.107509 J0.000000
G02 X273.904520 Y667.883000 Z-1.000000 I1.358652 J-9.890660
G01 X273.904520 Y667.683610 Z-1.000000
G00 Z5.000000

(End cutting path id: path2838)


(Start cutting path id: path2838)
(Change tool to Cone cutter)

G00 Z5.000000
G00 X273.904520 Y667.683610

G01 Z-1.000000 F100.0(Penetrate)
G01 X273.904520 Y667.484560 Z-1.000000 F400.000000
G02 X272.545624 Y667.577391 Z-1.000000 I0.000000 J9.992404
G02 X272.452990 Y667.683610 Z-1.000000 I0.014580 J0.106219
G02 X272.545868 Y667.790119 Z-1.000000 I0.107509 J0.000000
G02 X273.904520 Y667.883000 Z-1.000000 I1.358652 J-9.890660
G01 X273.904520 Y667.683610 Z-1.000000
G00 Z5.000000

(End cutting path id: path2838)


(Start cutting path id: path2838)
(Change tool to Cone cutter)

G00 Z5.000000
G00 X273.904520 Y667.683610

G00 Z5.000000

(End cutting path id: path2838)


(Start cutting path id: path2838)
(Change tool to Cone cutter)

G00 Z5.000000
G00 X273.904520 Y667.683610

G00 Z5.000000

(End cutting path id: path2838)


(Start cutting path id: path2858)
(Change tool to Cone cutter)

G00 Z5.000000
G00 X273.904520 Y665.218940

G01 Z-1.000000 F100.0(Penetrate)
G01 X273.904520 Y667.484560 Z-1.000000 F400.000000
G02 X275.510692 Y666.819611 Z-1.000000 I-0.000000 J-2.272314
G02 X276.174060 Y665.218940 Z-1.000000 I-1.599483 J-1.600671
G02 X275.509326 Y663.614139 Z-1.000000 I-2.269523 J0.000000
G02 X273.904520 Y662.949410 Z-1.000000 I-1.604806 J1.604818
G01 X273.904520 Y665.218940 Z-1.000000
G00 Z5.000000

(End cutting path id: path2858)


(Start cutting path id: path2858)
(Change tool to Cone cutter)

G00 Z5.000000
G00 X273.904520 Y665.218940

G01 Z-1.000000 F100.0(Penetrate)
G01 X273.904520 Y667.484560 Z-1.000000 F400.000000
G02 X275.510692 Y666.819611 Z-1.000000 I-0.000000 J-2.272314
G02 X276.174060 Y665.218940 Z-1.000000 I-1.599483 J-1.600671
G02 X275.509326 Y663.614139 Z-1.000000 I-2.269523 J0.000000
G02 X273.904520 Y662.949410 Z-1.000000 I-1.604806 J1.604818
G01 X273.904520 Y665.218940 Z-1.000000
G00 Z5.000000

(End cutting path id: path2858)


(Start cutting path id: path2858)
(Change tool to Cone cutter)

G00 Z5.000000
G00 X273.904520 Y665.218940

G00 Z5.000000

(End cutting path id: path2858)


(Start cutting path id: path2858)
(Change tool to Cone cutter)

G00 Z5.000000
G00 X273.904520 Y665.218940

G00 Z5.000000

(End cutting path id: path2858)


(Start cutting path id: path2856)
(Change tool to Cone cutter)

G00 Z5.000000
G00 X273.904520 Y665.218940

G01 Z-1.000000 F100.0(Penetrate)
G01 X273.904520 Y662.949410 Z-1.000000 F400.000000
G02 X272.303850 Y663.612774 Z-1.000000 I0.000000 J2.262858
G02 X271.638900 Y665.218940 Z-1.000000 I1.607347 J1.606166
G02 X272.302485 Y666.820975 Z-1.000000 I2.265620 J-0.000000
G02 X273.904520 Y667.484560 Z-1.000000 I1.602035 J-1.602035
G01 X273.904520 Y665.218940 Z-1.000000
G00 Z5.000000

(End cutting path id: path2856)


(Start cutting path id: path2856)
(Change tool to Cone cutter)

G00 Z5.000000
G00 X273.904520 Y665.218940

G01 Z-1.000000 F100.0(Penetrate)
G01 X273.904520 Y662.949410 Z-1.000000 F400.000000
G02 X272.303850 Y663.612774 Z-1.000000 I0.000000 J2.262858
G02 X271.638900 Y665.218940 Z-1.000000 I1.607347 J1.606166
G02 X272.302485 Y666.820975 Z-1.000000 I2.265620 J-0.000000
G02 X273.904520 Y667.484560 Z-1.000000 I1.602035 J-1.602035
G01 X273.904520 Y665.218940 Z-1.000000
G00 Z5.000000

(End cutting path id: path2856)


(Start cutting path id: path2856)
(Change tool to Cone cutter)

G00 Z5.000000
G00 X273.904520 Y665.218940

G00 Z5.000000

(End cutting path id: path2856)


(Start cutting path id: path2856)
(Change tool to Cone cutter)

G00 Z5.000000
G00 X273.904520 Y665.218940

G00 Z5.000000

(End cutting path id: path2856)


(Start cutting path id: path2730)
(Change tool to Cone cutter)

G00 Z5.000000
G00 X273.904525 Y663.418150

G01 Z-1.000000 F100.0(Penetrate)
G01 X273.904525 Y659.816590 Z-1.000000 F400.000000
G00 Z5.000000

(End cutting path id: path2730)


(Start cutting path id: path2730)
(Change tool to Cone cutter)

G00 Z5.000000
G00 X273.904525 Y663.418150

G01 Z-1.000000 F100.0(Penetrate)
G01 X273.904525 Y659.816590 Z-1.000000 F400.000000
G00 Z5.000000

(End cutting path id: path2730)


(Start cutting path id: path2728)
(Change tool to Cone cutter)

G00 Z5.000000
G00 X273.904525 Y659.816590

G01 Z-1.000000 F100.0(Penetrate)
G01 X273.904525 Y649.242370 Z-1.000000 F400.000000
G00 Z5.000000

(End cutting path id: path2728)


(Start cutting path id: path2728)
(Change tool to Cone cutter)

G00 Z5.000000
G00 X273.904525 Y659.816590

G01 Z-1.000000 F100.0(Penetrate)
G01 X273.904525 Y649.242370 Z-1.000000 F400.000000
G00 Z5.000000

(End cutting path id: path2728)


(Start cutting path id: path2726)
(Change tool to Cone cutter)

G00 Z5.000000
G00 X273.904525 Y649.242370

G01 Z-1.000000 F100.0(Penetrate)
G01 X273.666250 Y649.019725 Z-1.000000 F400.000000
G00 Z5.000000

(End cutting path id: path2726)


(Start cutting path id: path2726)
(Change tool to Cone cutter)

G00 Z5.000000
G00 X273.904525 Y649.242370

G01 Z-1.000000 F100.0(Penetrate)
G01 X273.666250 Y649.019725 Z-1.000000 F400.000000
G00 Z5.000000

(End cutting path id: path2726)


(Start cutting path id: path2930)
(Change tool to Cone cutter)

G00 Z5.000000
G00 X274.092020 Y649.019720

G01 Z-1.000000 F100.0(Penetrate)
G02 X273.965954 Y648.714521 Z-1.000000 I-0.432468 J-0.000000 F400.000000
G02 X273.666240 Y648.590030 Z-1.000000 I-0.299714 J0.298537
G02 X273.366530 Y648.714517 Z-1.000000 I0.000000 J0.423028
G02 X273.240460 Y649.019720 Z-1.000000 I0.306398 J0.305203
G02 X273.365168 Y649.320792 Z-1.000000 I0.425780 J-0.000000
G02 X273.666240 Y649.445500 Z-1.000000 I0.301072 J-0.301072
G02 X273.967316 Y649.320787 Z-1.000000 I0.000000 J-0.425780
G02 X274.092020 Y649.019720 Z-1.000000 I-0.301076 J-0.301067
G01 X274.092020 Y649.019720 Z-1.000000
G00 Z5.000000

(End cutting path id: path2930)


(Start cutting path id: path2930)
(Change tool to Cone cutter)

G00 Z5.000000
G00 X274.092020 Y649.019720

G01 Z-1.000000 F100.0(Penetrate)
G02 X273.965954 Y648.714521 Z-1.000000 I-0.432468 J-0.000000 F400.000000
G02 X273.666240 Y648.590030 Z-1.000000 I-0.299714 J0.298537
G02 X273.366530 Y648.714517 Z-1.000000 I0.000000 J0.423028
G02 X273.240460 Y649.019720 Z-1.000000 I0.306398 J0.305203
G02 X273.365168 Y649.320792 Z-1.000000 I0.425780 J-0.000000
G02 X273.666240 Y649.445500 Z-1.000000 I0.301072 J-0.301072
G02 X273.967316 Y649.320787 Z-1.000000 I0.000000 J-0.425780
G02 X274.092020 Y649.019720 Z-1.000000 I-0.301076 J-0.301067
G01 X274.092020 Y649.019720 Z-1.000000
G00 Z5.000000

(End cutting path id: path2930)


(Start cutting path id: path2930)
(Change tool to Cone cutter)

G00 Z5.000000
G00 X274.092020 Y649.019720

G00 Z5.000000

(End cutting path id: path2930)


(Start cutting path id: path2930)
(Change tool to Cone cutter)

G00 Z5.000000
G00 X274.092020 Y649.019720

G00 Z5.000000

(End cutting path id: path2930)


(Start cutting path id: path2846)
(Change tool to Cone cutter)

G00 Z5.000000
G00 X275.939680 Y649.019720

G01 Z-1.000000 F100.0(Penetrate)
G02 X275.272039 Y647.410391 Z-1.000000 I-2.273440 J0.000000 F400.000000
G02 X273.666240 Y646.746280 Z-1.000000 I-1.605799 J1.609329
G02 X272.060452 Y647.410388 Z-1.000000 I0.000000 J2.273423
G02 X271.392810 Y649.019720 Z-1.000000 I1.605805 J1.609332
G02 X272.059090 Y650.624929 Z-1.000000 I2.266782 J0.000000
G02 X273.666240 Y651.289250 Z-1.000000 I1.607150 J-1.611876
G02 X275.273400 Y650.624925 Z-1.000000 I-0.000000 J-2.276215
G02 X275.939680 Y649.019720 Z-1.000000 I-1.600495 J-1.605205
G01 X275.939680 Y649.019720 Z-1.000000
G00 Z5.000000

(End cutting path id: path2846)


(Start cutting path id: path2846)
(Change tool to Cone cutter)

G00 Z5.000000
G00 X275.939680 Y649.019720

G01 Z-1.000000 F100.0(Penetrate)
G02 X275.272039 Y647.410391 Z-1.000000 I-2.273440 J0.000000 F400.000000
G02 X273.666240 Y646.746280 Z-1.000000 I-1.605799 J1.609329
G02 X272.060452 Y647.410388 Z-1.000000 I0.000000 J2.273423
G02 X271.392810 Y649.019720 Z-1.000000 I1.605805 J1.609332
G02 X272.059090 Y650.624929 Z-1.000000 I2.266782 J0.000000
G02 X273.666240 Y651.289250 Z-1.000000 I1.607150 J-1.611876
G02 X275.273400 Y650.624925 Z-1.000000 I-0.000000 J-2.276215
G02 X275.939680 Y649.019720 Z-1.000000 I-1.600495 J-1.605205
G01 X275.939680 Y649.019720 Z-1.000000
G00 Z5.000000

(End cutting path id: path2846)


(Start cutting path id: path2846)
(Change tool to Cone cutter)

G00 Z5.000000
G00 X275.939680 Y649.019720

G00 Z5.000000

(End cutting path id: path2846)


(Start cutting path id: path2846)
(Change tool to Cone cutter)

G00 Z5.000000
G00 X275.939680 Y649.019720

G00 Z5.000000

(End cutting path id: path2846)


(Start cutting path id: path2724)
(Change tool to Cone cutter)

G00 Z5.000000
G00 X284.705305 Y649.019725

G01 Z-1.000000 F100.0(Penetrate)
G01 X284.705305 Y661.617370 Z-1.000000 F400.000000
G00 Z5.000000

(End cutting path id: path2724)


(Start cutting path id: path2724)
(Change tool to Cone cutter)

G00 Z5.000000
G00 X284.705305 Y649.019725

G01 Z-1.000000 F100.0(Penetrate)
G01 X284.705305 Y661.617370 Z-1.000000 F400.000000
G00 Z5.000000

(End cutting path id: path2724)


(Start cutting path id: path2722)
(Change tool to Cone cutter)

G00 Z5.000000
G00 X284.705305 Y649.019725

G01 Z-1.000000 F100.0(Penetrate)
G01 X284.705305 Y656.218945 Z-1.000000 F400.000000
G00 Z5.000000

(End cutting path id: path2722)


(Start cutting path id: path2722)
(Change tool to Cone cutter)

G00 Z5.000000
G00 X284.705305 Y649.019725

G01 Z-1.000000 F100.0(Penetrate)
G01 X284.705305 Y656.218945 Z-1.000000 F400.000000
G00 Z5.000000

(End cutting path id: path2722)


(Start cutting path id: path2932)
(Change tool to Cone cutter)

G00 Z5.000000
G00 X285.134990 Y649.019720

