%
(Header)
(Generated by gcodetools from Inkscape.)
(Using default header. To add your own header create file "header" in the output dir.)
M3
(Header end.)
G21 (All units in mm)

(Start cutting path id: path833)
(Change tool to Cone cutter)

G00 Z5.000000
G00 X36.564453 Y89.876953

G01 Z-1.000000 F100.0(Penetrate)
G01 X36.564453 Y65.867188 Z-1.000000 F100.000000
G01 X6.109375 Y57.707031 Z-1.000000
G01 X57.673828 Y27.937500 Z-1.000000
G01 X35.582031 Y15.183594 Z-1.000000
G01 X7.996094 Y15.183594 Z-1.000000
G01 X7.699219 Y8.220703 Z-1.000000
G01 X44.380859 Y8.220703 Z-1.000000
G01 X71.625000 Y23.949219 Z-1.000000
G01 X23.238281 Y51.886719 Z-1.000000
G01 X77.283203 Y66.367188 Z-1.000000
G01 X36.564453 Y89.876953 Z-1.000000
G00 Z5.000000

(End cutting path id: path833)


(Start cutting path id: path833)
(Change tool to Cone cutter)

G00 Z5.000000
G00 X36.564453 Y89.876953

G01 Z-1.000000 F100.0(Penetrate)
G01 X36.564453 Y65.867188 Z-1.000000 F100.000000
G01 X6.109375 Y57.707031 Z-1.000000
G01 X57.673828 Y27.937500 Z-1.000000
G01 X35.582031 Y15.183594 Z-1.000000
G01 X7.996094 Y15.183594 Z-1.000000
G01 X7.699219 Y8.220703 Z-1.000000
G01 X44.380859 Y8.220703 Z-1.000000
G01 X71.625000 Y23.949219 Z-1.000000
G01 X23.238281 Y51.886719 Z-1.000000
G01 X77.283203 Y66.367188 Z-1.000000
G01 X36.564453 Y89.876953 Z-1.000000
G00 Z5.000000

(End cutting path id: path833)


(Footer)
M5
G00 X0.0000 Y0.0000
(Using default footer. To add your own footer create file "footer" in the output dir.)
(end)
%
